purple_tint.cube
#Created by: Affinity Photo (Serif Europe Ltd.)
TITLE "38C3_Purple_Tint"
#LUT size
LUT_3D_SIZE 32
#data domain
DOMAIN_MIN 0.0 0.0 0.0
DOMAIN_MAX 1.0 1.0 1.0
#LUT data points
0.058824 0.000000 0.039216
0.062148 0.002174 0.047655
0.065473 0.004347 0.056094
0.068797 0.006521 0.064533
0.072122 0.008695 0.072972
0.075446 0.010869 0.081411
0.078771 0.013042 0.089850
0.082095 0.015216 0.098290
0.085420 0.017390 0.106729
0.088744 0.019563 0.115168
0.092069 0.021737 0.123607
0.095393 0.023911 0.132046
0.098718 0.026085 0.140485
0.102042 0.028258 0.148924
0.105367 0.030432 0.157364
0.108691 0.032606 0.165803
0.112016 0.034779 0.174242
0.115340 0.036953 0.182681
0.118665 0.039127 0.191120
0.121989 0.041301 0.199559
0.125314 0.043474 0.207998
0.128638 0.045648 0.216437
0.131963 0.047822 0.224877
0.135287 0.049995 0.233316
0.138612 0.052169 0.241755
0.141936 0.054343 0.250194
0.145261 0.056517 0.258633
0.148585 0.058690 0.267072
0.151910 0.060864 0.275511
0.155234 0.063038 0.283951
0.158559 0.065211 0.292390
0.164197 0.070477 0.302497
0.065350 0.004267 0.055783
0.068675 0.006441 0.064223
0.071999 0.008615 0.072662
0.075324 0.010789 0.081101
0.078648 0.012962 0.089540
0.081973 0.015136 0.097979
0.085297 0.017310 0.106418
0.088622 0.019483 0.114857
0.091946 0.021657 0.123297
0.095271 0.023831 0.131736
0.098595 0.026005 0.140175
0.101920 0.028178 0.148614
0.105244 0.030352 0.157053
0.108569 0.032526 0.165492
0.111893 0.034699 0.173931
0.115218 0.036873 0.182370
0.118542 0.039047 0.190810
0.121867 0.041221 0.199249
0.125191 0.043394 0.207688
0.128516 0.045568 0.216127
0.131840 0.047742 0.224566
0.135165 0.049915 0.233005
0.138489 0.052089 0.241444
0.141814 0.054263 0.249884
0.145139 0.056437 0.258323
0.148463 0.058610 0.266762
0.151788 0.060784 0.275201
0.155112 0.062958 0.283640
0.158437 0.065132 0.292079
0.163817 0.070053 0.302001
0.174139 0.081581 0.315488
0.184462 0.093109 0.328975
0.071877 0.008535 0.072351
0.075201 0.010709 0.080790
0.078526 0.012882 0.089230
0.081850 0.015056 0.097669
0.085175 0.017230 0.106108
0.088500 0.019404 0.114547
0.091824 0.021577 0.122986
0.095149 0.023751 0.131425
0.098473 0.025925 0.139864
0.101798 0.028098 0.148303
0.105122 0.030272 0.156743
0.108447 0.032446 0.165182
0.111771 0.034620 0.173621
0.115096 0.036793 0.182060
0.118420 0.038967 0.190499
0.121745 0.041141 0.198938
0.125069 0.043314 0.207377
0.128394 0.045488 0.215817
0.131718 0.047662 0.224256
0.135043 0.049836 0.232695
0.138367 0.052009 0.241134
0.141692 0.054183 0.249573
0.145016 0.056357 0.258012
0.148341 0.058530 0.266451
0.151665 0.060704 0.274890
0.154990 0.062878 0.283330
0.158314 0.065052 0.291769
0.163437 0.069629 0.301505
0.173760 0.081157 0.314992
0.184082 0.092685 0.328479
0.194405 0.104213 0.341966
0.204727 0.115741 0.355454
0.078404 0.012802 0.088919
0.081728 0.014976 0.097358
0.085053 0.017150 0.105797
0.088377 0.019324 0.114236
0.091702 0.021497 0.122676
0.095026 0.023671 0.131115
0.098351 0.025845 0.139554
0.101675 0.028018 0.147993
0.105000 0.030192 0.156432
0.108324 0.032366 0.164871
0.111649 0.034540 0.173310
0.114973 0.036713 0.181750
0.118298 0.038887 0.190189
0.121622 0.041061 0.198628
0.124947 0.043234 0.207067
0.128271 0.045408 0.215506
0.131596 0.047582 0.223945
0.134920 0.049756 0.232384
0.138245 0.051929 0.240823
0.141569 0.054103 0.249263
0.144894 0.056277 0.257702
0.148218 0.058450 0.266141
0.151543 0.060624 0.274580
0.154867 0.062798 0.283019
0.158192 0.064972 0.291458
0.163057 0.069205 0.301009
0.173380 0.080733 0.314496
0.183702 0.092261 0.327983
0.194025 0.103789 0.341470
0.204347 0.115317 0.354957
0.214670 0.126845 0.368444
0.224993 0.138374 0.381932
0.084930 0.017070 0.105487
0.088255 0.019244 0.113926
0.091579 0.021417 0.122365
0.094904 0.023591 0.130804
0.098228 0.025765 0.139243
0.101553 0.027938 0.147683
0.104877 0.030112 0.156122
0.108202 0.032286 0.164561
0.111526 0.034460 0.173000
0.114851 0.036633 0.181439
0.118176 0.038807 0.189878
0.121500 0.040981 0.198317
0.124825 0.043154 0.206756
0.128149 0.045328 0.215196
0.131474 0.047502 0.223635
0.134798 0.049676 0.232074
0.138123 0.051849 0.240513
0.141447 0.054023 0.248952
0.144772 0.056197 0.257391
0.148096 0.058370 0.265830
0.151421 0.060544 0.274270
0.154745 0.062718 0.282709
0.158070 0.064892 0.291148
0.162678 0.068781 0.300513
0.173000 0.080309 0.314000
0.183323 0.091837 0.327487
0.193645 0.103365 0.340974
0.203968 0.114893 0.354461
0.214290 0.126421 0.367948
0.224613 0.137949 0.381435
0.234935 0.149478 0.394922
0.245258 0.161006 0.408410
0.091457 0.021337 0.122055
0.094782 0.023511 0.130494
0.098106 0.025685 0.138933
0.101431 0.027858 0.147372
0.104755 0.030032 0.155811
0.108080 0.032206 0.164250
0.111404 0.034380 0.172689
0.114729 0.036553 0.181129
0.118053 0.038727 0.189568
0.121378 0.040901 0.198007
0.124702 0.043074 0.206446
0.128027 0.045248 0.214885
0.131351 0.047422 0.223324
0.134676 0.049596 0.231763
0.138000 0.051769 0.240203
0.141325 0.053943 0.248642
0.144649 0.056117 0.257081
0.147974 0.058290 0.265520
0.151298 0.060464 0.273959
0.154623 0.062638 0.282398
0.157947 0.064812 0.290837
0.162298 0.068357 0.300017
0.172620 0.079885 0.313504
0.182943 0.091413 0.326991
0.193265 0.102941 0.340478
0.203588 0.114469 0.353965
0.213911 0.125997 0.367452
0.224233 0.137525 0.380939
0.234556 0.149053 0.394426
0.244878 0.160582 0.407913
0.255201 0.172110 0.421401
0.265523 0.183638 0.434888
0.097984 0.025605 0.138622
0.101308 0.027778 0.147062
0.104633 0.029952 0.155501
0.107957 0.032126 0.163940
0.111282 0.034300 0.172379
0.114606 0.036473 0.180818
0.117931 0.038647 0.189257
0.121255 0.040821 0.197696
0.124580 0.042995 0.206136
0.127904 0.045168 0.214575
0.131229 0.047342 0.223014
0.134553 0.049516 0.231453
0.137878 0.051689 0.239892
0.141202 0.053863 0.248331
0.144527 0.056037 0.256770
0.147851 0.058211 0.265209
0.151176 0.060384 0.273649
0.154501 0.062558 0.282088
0.157825 0.064732 0.290527
0.161918 0.067933 0.299520
0.172241 0.079461 0.313007
0.182563 0.090989 0.326495
0.192886 0.102517 0.339982
0.203208 0.114045 0.353469
0.213531 0.125573 0.366956
0.223853 0.137101 0.380443
0.234176 0.148629 0.393930
0.244498 0.160157 0.407417
0.254821 0.171686 0.420904
0.265143 0.183214 0.434392
0.275466 0.194742 0.447879
0.285789 0.206270 0.461366
0.104511 0.029872 0.155190
0.107835 0.032046 0.163629
0.111160 0.034220 0.172069
0.114484 0.036393 0.180508
0.117809 0.038567 0.188947
0.121133 0.040741 0.197386
0.124458 0.042915 0.205825
0.127782 0.045088 0.214264
0.131107 0.047262 0.222703
0.134431 0.049436 0.231142
0.137756 0.051609 0.239582
0.141080 0.053783 0.248021
0.144405 0.055957 0.256460
0.147729 0.058131 0.264899
0.151054 0.060304 0.273338
0.154378 0.062478 0.281777
0.157703 0.064652 0.290216
0.161538 0.067509 0.299024
0.171861 0.079037 0.312511
0.182183 0.090565 0.325998
0.192506 0.102093 0.339486
0.202828 0.113621 0.352973
0.213151 0.125149 0.366460
0.223474 0.136677 0.379947
0.233796 0.148205 0.393434
0.244119 0.159733 0.406921
0.254441 0.171261 0.420408
0.264764 0.182790 0.433895
0.275086 0.194318 0.447382
0.285409 0.205846 0.460870
0.295731 0.217374 0.474357
0.306054 0.228902 0.487844
0.111037 0.034140 0.171758
0.114362 0.036313 0.180197
0.117686 0.038487 0.188636
0.121011 0.040661 0.197075
0.124335 0.042835 0.205515
0.127660 0.045008 0.213954
0.130984 0.047182 0.222393
0.134309 0.049356 0.230832
0.137633 0.051529 0.239271
0.140958 0.053703 0.247710
0.144282 0.055877 0.256149
0.147607 0.058051 0.264589
0.150931 0.060224 0.273028
0.154256 0.062398 0.281467
0.157580 0.064572 0.289906
0.161159 0.067084 0.298528
0.171481 0.078613 0.312015
0.181804 0.090141 0.325502
0.192126 0.101669 0.338989
0.202449 0.113197 0.352476
0.212771 0.124725 0.365964
0.223094 0.136253 0.379451
0.233416 0.147781 0.392938
0.243739 0.159309 0.406425
0.254061 0.170837 0.419912
0.264384 0.182365 0.433399
0.274706 0.193893 0.446886
0.285029 0.205422 0.460373
0.295352 0.216950 0.473861
0.305674 0.228478 0.487348
0.315997 0.240006 0.500835
0.326319 0.251534 0.514322
0.117564 0.038407 0.188326
0.120888 0.040581 0.196765
0.124213 0.042755 0.205204
0.127538 0.044928 0.213643
0.130862 0.047102 0.222082
0.134187 0.049276 0.230522
0.137511 0.051449 0.238961
0.140836 0.053623 0.247400
0.144160 0.055797 0.255839
0.147485 0.057971 0.264278
0.150809 0.060144 0.272717
0.154134 0.062318 0.281156
0.157458 0.064492 0.289595
0.160783 0.066665 0.298035
0.171101 0.078188 0.311519
0.181424 0.089717 0.325006
0.191746 0.101245 0.338493
0.202069 0.112773 0.351980
0.212391 0.124301 0.365467
0.222714 0.135829 0.378955
0.233037 0.147357 0.392442
0.243359 0.158885 0.405929
0.253682 0.170413 0.419416
0.264004 0.181941 0.432903
0.274327 0.193469 0.446390
0.284649 0.204997 0.459877
0.294972 0.216526 0.473364
0.305294 0.228054 0.486851
0.315617 0.239582 0.500339
0.325939 0.251110 0.513826
0.336262 0.262638 0.527313
0.346585 0.274166 0.540800
0.124091 0.042675 0.204894
0.127415 0.044848 0.213333
0.130740 0.047022 0.221772
0.134064 0.049196 0.230211
0.137389 0.051369 0.238650
0.140713 0.053543 0.247089
0.144038 0.055717 0.255528
0.147362 0.057891 0.263968
0.150687 0.060064 0.272407
0.154011 0.062238 0.280846
0.157336 0.064412 0.289285
0.160660 0.066585 0.297724
0.170722 0.077764 0.311023
0.181044 0.089292 0.324510
0.191367 0.100820 0.337997
0.201689 0.112349 0.351484
0.212012 0.123877 0.364971
0.222334 0.135405 0.378458
0.232657 0.146933 0.391945
0.242979 0.158461 0.405433
0.253302 0.169989 0.418920
0.263624 0.181517 0.432407
0.273947 0.193045 0.445894
0.284270 0.204573 0.459381
0.294592 0.216101 0.472868
0.304915 0.227630 0.486355
0.315237 0.239158 0.499842
0.325560 0.250686 0.513330
0.335882 0.262214 0.526817
0.346205 0.273742 0.540304
0.356527 0.285270 0.553791
0.366850 0.296798 0.567278
0.130617 0.046942 0.221461
0.133942 0.049116 0.229901
0.137266 0.051290 0.238340
0.140591 0.053463 0.246779
0.143915 0.055637 0.255218
0.147240 0.057811 0.263657
0.150564 0.059984 0.272096
0.153889 0.062158 0.280535
0.157214 0.064332 0.288975
0.160538 0.066506 0.297414
0.170342 0.077340 0.310527
0.180664 0.088868 0.324014
0.190987 0.100396 0.337501
0.201309 0.111924 0.350988
0.211632 0.123453 0.364475
0.221955 0.134981 0.377962
0.232277 0.146509 0.391449
0.242600 0.158037 0.404936
0.252922 0.169565 0.418424
0.263245 0.181093 0.431911
0.273567 0.192621 0.445398
0.283890 0.204149 0.458885
0.294212 0.215677 0.472372
0.304535 0.227205 0.485859
0.314857 0.238734 0.499346
0.325180 0.250262 0.512833
0.335502 0.261790 0.526320
0.345825 0.273318 0.539808
0.356148 0.284846 0.553295
0.366470 0.296374 0.566782
0.376793 0.307902 0.580269
0.387115 0.319430 0.593756
0.137144 0.051210 0.238029
0.140469 0.053383 0.246468
0.143793 0.055557 0.254908
0.147118 0.057731 0.263347
0.150442 0.059904 0.271786
0.153767 0.062078 0.280225
0.157091 0.064252 0.288664
0.160416 0.066426 0.297103
0.169962 0.076916 0.310030
0.180285 0.088444 0.323518
0.190607 0.099972 0.337005
0.200930 0.111500 0.350492
0.211252 0.123028 0.363979
0.221575 0.134557 0.377466
0.231897 0.146085 0.390953
0.242220 0.157613 0.404440
0.252542 0.169141 0.417927
0.262865 0.180669 0.431414
0.273187 0.192197 0.444902
0.283510 0.203725 0.458389
0.293833 0.215253 0.471876
0.304155 0.226781 0.485363
0.314478 0.238309 0.498850
0.324800 0.249838 0.512337
0.335123 0.261366 0.525824
0.345445 0.272894 0.539311
0.355768 0.284422 0.552799
0.366090 0.295950 0.566286
0.376413 0.307478 0.579773
0.386735 0.319006 0.593260
0.397058 0.330534 0.606747
0.407381 0.342062 0.620234
0.143671 0.055477 0.254597
0.146995 0.057651 0.263036
0.150320 0.059824 0.271475
0.153644 0.061998 0.279914
0.156969 0.064172 0.288354
0.160293 0.066346 0.296793
0.169582 0.076492 0.309534
0.179905 0.088020 0.323021
0.190227 0.099548 0.336508
0.200550 0.111076 0.349996
0.210872 0.122604 0.363483
0.221195 0.134132 0.376970
0.231518 0.145661 0.390457
0.241840 0.157189 0.403944
0.252163 0.168717 0.417431
0.262485 0.180245 0.430918
0.272808 0.191773 0.444405
0.283130 0.203301 0.457892
0.293453 0.214829 0.471380
0.303775 0.226357 0.484867
0.314098 0.237885 0.498354
0.324420 0.249413 0.511841
0.334743 0.260942 0.525328
0.345066 0.272470 0.538815
0.355388 0.283998 0.552302
0.365711 0.295526 0.565789
0.376033 0.307054 0.579277
0.386356 0.318582 0.592764
0.396678 0.330110 0.606251
0.407001 0.341638 0.619738
0.417323 0.353166 0.633225
0.427646 0.364694 0.646712
0.150198 0.059744 0.271165
0.153522 0.061918 0.279604
0.156847 0.064092 0.288043
0.160171 0.066266 0.296482
0.169203 0.076068 0.309038
0.179525 0.087596 0.322525
0.189848 0.099124 0.336012
0.200170 0.110652 0.349499
0.210493 0.122180 0.362987
0.220815 0.133708 0.376474
0.231138 0.145236 0.389961
0.241460 0.156765 0.403448
0.251783 0.168293 0.416935
0.262105 0.179821 0.430422
0.272428 0.191349 0.443909
0.282750 0.202877 0.457396
0.293073 0.214405 0.470883
0.303396 0.225933 0.484371
0.313718 0.237461 0.497858
0.324041 0.248989 0.511345
0.334363 0.260517 0.524832
0.344686 0.272046 0.538319
0.355008 0.283574 0.551806
0.365331 0.295102 0.565293
0.375653 0.306630 0.578780
0.385976 0.318158 0.592268
0.396298 0.329686 0.605755
0.406621 0.341214 0.619242
0.416943 0.352742 0.632729
0.427266 0.364270 0.646216
0.437589 0.375798 0.659703
0.447911 0.387327 0.673190
0.156724 0.064012 0.287733
0.160049 0.066186 0.296172
0.168823 0.075644 0.308542
0.179145 0.087172 0.322029
0.189468 0.098700 0.335516
0.199790 0.110228 0.349003
0.210113 0.121756 0.362490
0.220435 0.133284 0.375977
0.230758 0.144812 0.389465
0.241081 0.156340 0.402952
0.251403 0.167869 0.416439
0.261726 0.179397 0.429926
0.272048 0.190925 0.443413
0.282371 0.202453 0.456900
0.292693 0.213981 0.470387
0.303016 0.225509 0.483874
0.313338 0.237037 0.497362
0.323661 0.248565 0.510849
0.333983 0.260093 0.524336
0.344306 0.271621 0.537823
0.354629 0.283150 0.551310
0.364951 0.294678 0.564797
0.375274 0.306206 0.578284
0.385596 0.317734 0.591771
0.395919 0.329262 0.605258
0.406241 0.340790 0.618746
0.416564 0.352318 0.632233
0.426886 0.363846 0.645720
0.437209 0.375374 0.659207
0.447531 0.386902 0.672694
0.457854 0.398430 0.686181
0.468176 0.409959 0.699668
0.168443 0.075220 0.308046
0.178766 0.086748 0.321533
0.189088 0.098276 0.335020
0.199411 0.109804 0.348507
0.209733 0.121332 0.361994
0.220056 0.132860 0.375481
0.230378 0.144388 0.388968
0.240701 0.155916 0.402455
0.251023 0.167444 0.415943
0.261346 0.178972 0.429430
0.271668 0.190501 0.442917
0.281991 0.202029 0.456404
0.292313 0.213557 0.469891
0.302636 0.225085 0.483378
0.312959 0.236613 0.496865
0.323281 0.248141 0.510352
0.333604 0.259669 0.523840
0.343926 0.271197 0.537327
0.354249 0.282725 0.550814
0.364571 0.294253 0.564301
0.374894 0.305782 0.577788
0.385216 0.317310 0.591275
0.395539 0.328838 0.604762
0.405861 0.340366 0.618249
0.416184 0.351894 0.631737
0.426507 0.363422 0.645224
0.436829 0.374950 0.658711
0.447152 0.386478 0.672198
0.457474 0.398006 0.685685
0.467797 0.409534 0.699172
0.478119 0.421063 0.712659
0.488442 0.432591 0.726146
0.188708 0.097852 0.334524
0.199031 0.109380 0.348011
0.209353 0.120908 0.361498
0.219676 0.132436 0.374985
0.229999 0.143964 0.388472
0.240321 0.155492 0.401959
0.250644 0.167020 0.415446
0.260966 0.178548 0.428934
0.271289 0.190077 0.442421
0.281611 0.201605 0.455908
0.291934 0.213133 0.469395
0.302256 0.224661 0.482882
0.312579 0.236189 0.496369
0.322901 0.247717 0.509856
0.333224 0.259245 0.523343
0.343546 0.270773 0.536830
0.353869 0.282301 0.550318
0.364192 0.293829 0.563805
0.374514 0.305357 0.577292
0.384837 0.316886 0.590779
0.395159 0.328414 0.604266
0.405482 0.339942 0.617753
0.415804 0.351470 0.631240
0.426127 0.362998 0.644727
0.436449 0.374526 0.658215
0.446772 0.386054 0.671702
0.457094 0.397582 0.685189
0.467417 0.409110 0.698676
0.477739 0.420638 0.712163
0.488062 0.432167 0.725650
0.498385 0.443695 0.739137
0.508707 0.455223 0.752624
0.208974 0.120484 0.361002
0.219296 0.132012 0.374489
0.229619 0.143540 0.387976
0.239941 0.155068 0.401463
0.250264 0.166596 0.414950
0.260586 0.178124 0.428437
0.270909 0.189652 0.441924
0.281231 0.201180 0.455412
0.291554 0.212709 0.468899
0.301877 0.224237 0.482386
0.312199 0.235765 0.495873
0.322522 0.247293 0.509360
0.332844 0.258821 0.522847
0.343167 0.270349 0.536334
0.353489 0.281877 0.549821
0.363812 0.293405 0.563309
0.374134 0.304933 0.576796
0.384457 0.316461 0.590283
0.394779 0.327990 0.603770
0.405102 0.339518 0.617257
0.415425 0.351046 0.630744
0.425747 0.362574 0.644231
0.436070 0.374102 0.657718
0.446392 0.385630 0.671205
0.456715 0.397158 0.684693
0.467037 0.408686 0.698180
0.477360 0.420214 0.711667
0.487682 0.431742 0.725154
0.498005 0.443271 0.738641
0.508327 0.454799 0.752128
0.518650 0.466327 0.765615
0.528972 0.477855 0.779102
0.229239 0.143116 0.387480
0.239562 0.154644 0.400967
0.249884 0.166172 0.414454
0.260207 0.177700 0.427941
0.270529 0.189228 0.441428
0.280852 0.200756 0.454915
0.291174 0.212284 0.468403
0.301497 0.223813 0.481890
0.311819 0.235341 0.495377
0.322142 0.246869 0.508864
0.332464 0.258397 0.522351
0.342787 0.269925 0.535838
0.353110 0.281453 0.549325
0.363432 0.292981 0.562812
0.373755 0.304509 0.576299
0.384077 0.316037 0.589787
0.394400 0.327565 0.603274
0.404722 0.339094 0.616761
0.415045 0.350622 0.630248
0.425367 0.362150 0.643735
0.435690 0.373678 0.657222
0.446012 0.385206 0.670709
0.456335 0.396734 0.684196
0.466657 0.408262 0.697684
0.476980 0.419790 0.711171
0.487303 0.431318 0.724658
0.497625 0.442846 0.738145
0.507948 0.454375 0.751632
0.518270 0.465903 0.765119
0.528593 0.477431 0.778606
0.538915 0.488959 0.792093
0.549238 0.500487 0.805580
0.249504 0.165748 0.413958
0.259827 0.177276 0.427445
0.270149 0.188804 0.440932
0.280472 0.200332 0.454419
0.290794 0.211860 0.467906
0.301117 0.223388 0.481393
0.311440 0.234917 0.494881
0.321762 0.246445 0.508368
0.332085 0.257973 0.521855
0.342407 0.269501 0.535342
0.352730 0.281029 0.548829
0.363052 0.292557 0.562316
0.373375 0.304085 0.575803
0.383697 0.315613 0.589290
0.394020 0.327141 0.602777
0.404342 0.338669 0.616265
0.414665 0.350198 0.629752
0.424987 0.361726 0.643239
0.435310 0.373254 0.656726
0.445633 0.384782 0.670213
0.455955 0.396310 0.683700
0.466278 0.407838 0.697187
0.476600 0.419366 0.710674
0.486923 0.430894 0.724162
0.497245 0.442422 0.737649
0.507568 0.453950 0.751136
0.517890 0.465478 0.764623
0.528213 0.477007 0.778110
0.538535 0.488535 0.791597
0.548858 0.500063 0.805084
0.559181 0.511591 0.818571
0.569503 0.523119 0.832059
0.269770 0.188380 0.440436
0.280092 0.199908 0.453923
0.290415 0.211436 0.467410
0.300737 0.222964 0.480897
0.311060 0.234492 0.494384
0.321382 0.246021 0.507872
0.331705 0.257549 0.521359
0.342027 0.269077 0.534846
0.352350 0.280605 0.548333
0.362673 0.292133 0.561820
0.372995 0.303661 0.575307
0.383318 0.315189 0.588794
0.393640 0.326717 0.602281
0.403963 0.338245 0.615768
0.414285 0.349773 0.629256
0.424608 0.361302 0.642743
0.434930 0.372830 0.656230
0.445253 0.384358 0.669717
0.455575 0.395886 0.683204
0.465898 0.407414 0.696691
0.476220 0.418942 0.710178
0.486543 0.430470 0.723665
0.496866 0.441998 0.737153
0.507188 0.453526 0.750640
0.517511 0.465054 0.764127
0.527833 0.476583 0.777614
0.538156 0.488111 0.791101
0.548478 0.499639 0.804588
0.558801 0.511167 0.818075
0.569123 0.522695 0.831562
0.579446 0.534223 0.845050
0.589768 0.545751 0.858537
0.290035 0.211012 0.466914
0.300357 0.222540 0.480401
0.310680 0.234068 0.493888
0.321003 0.245596 0.507375
0.331325 0.257125 0.520862
0.341648 0.268653 0.534350
0.351970 0.280181 0.547837
0.362293 0.291709 0.561324
0.372615 0.303237 0.574811
0.382938 0.314765 0.588298
0.393260 0.326293 0.601785
0.403583 0.337821 0.615272
0.413905 0.349349 0.628759
0.424228 0.360877 0.642247
0.434551 0.372406 0.655734
0.444873 0.383934 0.669221
0.455196 0.395462 0.682708
0.465518 0.406990 0.696195
0.475841 0.418518 0.709682
0.486163 0.430046 0.723169
0.496486 0.441574 0.736656
0.506808 0.453102 0.750144
0.517131 0.464630 0.763631
0.527453 0.476158 0.777118
0.537776 0.487686 0.790605
0.548099 0.499215 0.804092
0.558421 0.510743 0.817579
0.568744 0.522271 0.831066
0.579066 0.533799 0.844553
0.589389 0.545327 0.858040
0.599711 0.556855 0.871528
0.610034 0.568383 0.885015
0.310300 0.233644 0.493392
0.320623 0.245172 0.506879
0.330945 0.256700 0.520366
0.341268 0.268229 0.533853
0.351590 0.279757 0.547341
0.361913 0.291285 0.560828
0.372236 0.302813 0.574315
0.382558 0.314341 0.587802
0.392881 0.325869 0.601289
0.403203 0.337397 0.614776
0.413526 0.348925 0.628263
0.423848 0.360453 0.641750
0.434171 0.371981 0.655237
0.444493 0.383510 0.668725
0.454816 0.395038 0.682212
0.465138 0.406566 0.695699
0.475461 0.418094 0.709186
0.485784 0.429622 0.722673
0.496106 0.441150 0.736160
0.506429 0.452678 0.749647
0.516751 0.464206 0.763134
0.527074 0.475734 0.776622
0.537396 0.487262 0.790109
0.547719 0.498790 0.803596
0.558041 0.510319 0.817083
0.568364 0.521847 0.830570
0.578686 0.533375 0.844057
0.589009 0.544903 0.857544
0.599331 0.556431 0.871031
0.609654 0.567959 0.884519
0.619977 0.579487 0.898006
0.630299 0.591015 0.911493
0.330566 0.256276 0.519870
0.340888 0.267804 0.533357
0.351211 0.279333 0.546844
0.361533 0.290861 0.560331
0.371856 0.302389 0.573819
0.382178 0.313917 0.587306
0.392501 0.325445 0.600793
0.402823 0.336973 0.614280
0.413146 0.348501 0.627767
0.423469 0.360029 0.641254
0.433791 0.371557 0.654741
0.444114 0.383085 0.668228
0.454436 0.394613 0.681715
0.464759 0.406142 0.695203
0.475081 0.417670 0.708690
0.485404 0.429198 0.722177
0.495726 0.440726 0.735664
0.506049 0.452254 0.749151
0.516371 0.463782 0.762638
0.526694 0.475310 0.776125
0.537016 0.486838 0.789612
0.547339 0.498366 0.803100
0.557662 0.509894 0.816587
0.567984 0.521423 0.830074
0.578307 0.532951 0.843561
0.588629 0.544479 0.857048
0.598952 0.556007 0.870535
0.609274 0.567535 0.884022
0.619597 0.579063 0.897509
0.629919 0.590591 0.910996
0.640242 0.602119 0.924484
0.650564 0.613647 0.937971
0.350831 0.278908 0.546348
0.361154 0.290437 0.559835
0.371476 0.301965 0.573322
0.381799 0.313493 0.586810
0.392121 0.325021 0.600297
0.402444 0.336549 0.613784
0.412766 0.348077 0.627271
0.423089 0.359605 0.640758
0.433411 0.371133 0.654245
0.443734 0.382661 0.667732
0.454056 0.394189 0.681219
0.464379 0.405717 0.694706
0.474701 0.417246 0.708194
0.485024 0.428774 0.721681
0.495347 0.440302 0.735168
0.505669 0.451830 0.748655
0.515992 0.463358 0.762142
0.526314 0.474886 0.775629
0.536637 0.486414 0.789116
0.546959 0.497942 0.802603
0.557282 0.509470 0.816091
0.567604 0.520998 0.829578
0.577927 0.532527 0.843065
0.588249 0.544055 0.856552
0.598572 0.555583 0.870039
0.608895 0.567111 0.883526
0.619217 0.578639 0.897013
0.629540 0.590167 0.910500
0.639862 0.601695 0.923987
0.650185 0.613223 0.937475
0.660507 0.624751 0.950962
0.670830 0.636279 0.964449
0.371096 0.301540 0.572826
0.381419 0.313069 0.586313
0.391741 0.324597 0.599800
0.402064 0.336125 0.613288
0.412386 0.347653 0.626775
0.422709 0.359181 0.640262
0.433031 0.370709 0.653749
0.443354 0.382237 0.667236
0.453677 0.393765 0.680723
0.463999 0.405293 0.694210
0.474322 0.416821 0.707697
0.484644 0.428349 0.721184
0.494967 0.439878 0.734672
0.505289 0.451406 0.748159
0.515612 0.462934 0.761646
0.525934 0.474462 0.775133
0.536257 0.485990 0.788620
0.546579 0.497518 0.802107
0.556902 0.509046 0.815594
0.567225 0.520574 0.829081
0.577547 0.532102 0.842569
0.587870 0.543631 0.856056
0.598192 0.555159 0.869543
0.608515 0.566687 0.883030
0.618837 0.578215 0.896517
0.629160 0.589743 0.910004
0.639482 0.601271 0.923491
0.649805 0.612799 0.936978
0.660127 0.624327 0.950465
0.670450 0.635855 0.963953
0.680772 0.647383 0.977440
0.691095 0.658912 0.990927
0.391362 0.324173 0.599304
0.401684 0.335701 0.612791
0.412007 0.347229 0.626279
0.422329 0.358757 0.639766
0.432652 0.370285 0.653253
0.442974 0.381813 0.666740
0.453297 0.393341 0.680227
0.463619 0.404869 0.693714
0.473942 0.416397 0.707201
0.484264 0.427925 0.720688
0.494587 0.439454 0.734175
0.504910 0.450982 0.747663
0.515232 0.462510 0.761150
0.525555 0.474038 0.774637
0.535877 0.485566 0.788124
0.546200 0.497094 0.801611
0.556522 0.508622 0.815098
0.566845 0.520150 0.828585
