purple_tint.cube
#Created by: Affinity Photo (Serif Europe Ltd.)
TITLE "38C3_Purple_Tint"
#LUT size
LUT_3D_SIZE 8
#data domain
#LUT data points
DOMAIN_MIN 0.000000 0.000000 0.000000
DOMAIN_MAX 0.903226 0.903226 0.903226
0.058824 0.000000 0.039216
0.072122 0.008695 0.072972
0.085420 0.017390 0.106729
0.098718 0.026085 0.140485
0.112016 0.034779 0.174242
0.125314 0.043474 0.207998
0.138612 0.052169 0.241755
0.151910 0.060864 0.275511
0.084930 0.017070 0.105487
0.098228 0.025765 0.139243
0.111526 0.034460 0.173000
0.124825 0.043154 0.206756
0.138123 0.051849 0.240513
0.151421 0.060544 0.274270
0.173000 0.080309 0.314000
0.214290 0.126421 0.367948
0.111037 0.034140 0.171758
0.124335 0.042835 0.205515
0.137633 0.051529 0.239271
0.150931 0.060224 0.273028
0.171481 0.078613 0.312015
0.212771 0.124725 0.365964
0.254061 0.170837 0.419912
0.295352 0.216950 0.473861
0.137144 0.051210 0.238029
0.150442 0.059904 0.271786
0.169962 0.076916 0.310030
0.211252 0.123028 0.363979
0.252542 0.169141 0.417927
0.293833 0.215253 0.471876
0.335123 0.261366 0.525824
0.376413 0.307478 0.579773
0.168443 0.075220 0.308046
0.209733 0.121332 0.361994
0.251023 0.167444 0.415943
0.292313 0.213557 0.469891
0.333604 0.259669 0.523840
0.374894 0.305782 0.577788
0.416184 0.351894 0.631737
0.457474 0.398006 0.685685
0.249504 0.165748 0.413958
0.290794 0.211860 0.467906
0.332085 0.257973 0.521855
0.373375 0.304085 0.575803
0.414665 0.350198 0.629752
0.455955 0.396310 0.683700
0.497245 0.442422 0.737649
0.538535 0.488535 0.791597
0.330566 0.256276 0.519870
0.371856 0.302389 0.573819
0.413146 0.348501 0.627767
0.454436 0.394613 0.681715
0.495726 0.440726 0.735664
0.537016 0.486838 0.789612
0.578307 0.532951 0.843561
0.619597 0.579063 0.897509
0.411627 0.346805 0.625782
0.452917 0.392917 0.679731
0.494207 0.439029 0.733679
0.535497 0.485142 0.787628
0.576788 0.531254 0.841576
0.618078 0.577367 0.895525
0.659368 0.623479 0.949473
0.701646 0.670084 1.000000
0.063894 0.003315 0.052086
0.077192 0.012010 0.085843
0.090490 0.020705 0.119599
0.103788 0.029400 0.153356
0.117086 0.038095 0.187112
0.130384 0.046789 0.220869
0.143682 0.055484 0.254625
0.156980 0.064179 0.288382
0.090001 0.020385 0.118357
0.103299 0.029080 0.152114
0.116597 0.037775 0.185870
0.129895 0.046470 0.219627
0.143193 0.055164 0.253383
0.156491 0.063859 0.287140
0.188743 0.097890 0.334569
0.230033 0.144003 0.388517
0.116107 0.037455 0.184628
0.129405 0.046150 0.218385
0.142704 0.054845 0.252142
0.156002 0.063539 0.285898
0.187224 0.096194 0.332584
0.228514 0.142306 0.386533
0.269804 0.188419 0.440481
0.311094 0.234531 0.494429
0.142214 0.054525 0.250900
0.155512 0.063220 0.284656
0.185705 0.094497 0.330599
0.226995 0.140610 0.384548
0.268285 0.186722 0.438496
0.309575 0.232835 0.492445
0.350865 0.278947 0.546393
0.392156 0.325059 0.600342
0.184186 0.092801 0.328615
0.225476 0.138913 0.382563
0.266766 0.185026 0.436512
0.308056 0.231138 0.490460
0.349346 0.277250 0.544409
0.390637 0.323363 0.598357
0.431927 0.369475 0.652305
0.473217 0.415588 0.706254
0.265247 0.183329 0.434527
0.306537 0.229442 0.488475
0.347827 0.275554 0.542424
0.389118 0.321666 0.596372
0.430408 0.367779 0.650321
0.471698 0.413891 0.704269
0.512988 0.460004 0.758218
0.554278 0.506116 0.812166
0.346308 0.273858 0.540439
0.387599 0.319970 0.594388
0.428889 0.366082 0.648336
0.470179 0.412195 0.702284
0.511469 0.458307 0.756233
0.552759 0.504420 0.810181
0.594049 0.550532 0.864130
0.635340 0.596644 0.918078
0.427370 0.364386 0.646351
0.468660 0.410498 0.700300
0.509950 0.456611 0.754248
0.551240 0.502723 0.808197
0.592530 0.548836 0.862145
0.633820 0.594948 0.916094
0.675111 0.641060 0.970042
0.723329 0.690626 1.000000
0.068964 0.006630 0.064956
0.082262 0.015325 0.098713
0.095560 0.024020 0.132470
0.108858 0.032715 0.166226
0.122156 0.041410 0.199983
0.135454 0.050105 0.233739
0.148752 0.058799 0.267496
0.164714 0.071056 0.303174
0.095071 0.023700 0.131228
0.108369 0.032395 0.164984
0.121667 0.041090 0.198741
0.134965 0.049785 0.232497
0.148263 0.058479 0.266254
0.163195 0.069359 0.301189
0.204486 0.115472 0.355138
0.245776 0.161584 0.409086
0.121178 0.040770 0.197499
0.134476 0.049465 0.231255
0.147774 0.058160 0.265012
0.161676 0.067663 0.299205
0.202967 0.113775 0.353153
0.244257 0.159888 0.407102
0.285547 0.206000 0.461050
0.326837 0.252112 0.514998
0.147284 0.057840 0.263770
0.160582 0.066535 0.297527
0.201448 0.112079 0.351168
0.242738 0.158191 0.405117
0.284028 0.204304 0.459065
0.325318 0.250416 0.513014
0.366608 0.296528 0.566962
0.407898 0.342641 0.620911
0.199928 0.110382 0.349184
0.241219 0.156495 0.403132
0.282509 0.202607 0.457081
0.323799 0.248719 0.511029
0.365089 0.294832 0.564977
0.406379 0.340944 0.618926
0.447670 0.387057 0.672874
0.488960 0.433169 0.726823
0.280990 0.200911 0.455096
0.322280 0.247023 0.509044
0.363570 0.293135 0.562993
0.404860 0.339248 0.616941
0.446150 0.385360 0.670890
0.487441 0.431473 0.724838
0.528731 0.477585 0.778787
0.570021 0.523697 0.832735
0.362051 0.291439 0.561008
0.403341 0.337551 0.614957
0.444631 0.383664 0.668905
0.485922 0.429776 0.722853
0.527212 0.475889 0.776802
0.568502 0.522001 0.830750
0.609792 0.568113 0.884699
0.651082 0.614226 0.938647
0.443112 0.381967 0.666920
0.484403 0.428080 0.720869
0.525693 0.474192 0.774817
0.566983 0.520304 0.828766
0.608273 0.566417 0.882714
0.649563 0.612529 0.936663
0.690853 0.658642 0.990611
0.745012 0.711167 1.000000
0.074034 0.009945 0.077827
0.087332 0.018640 0.111583
0.100630 0.027335 0.145340
0.113928 0.036030 0.179096
0.127226 0.044725 0.212853
0.140524 0.053420 0.246609
0.153822 0.062114 0.280366
0.180457 0.088637 0.323743
0.100141 0.027015 0.144098
0.113439 0.035710 0.177855
0.126737 0.044405 0.211611
0.140035 0.053100 0.245368
0.153333 0.061795 0.279124
0.178938 0.086941 0.321758
0.220228 0.133053 0.375707
0.261518 0.179165 0.429655
0.126248 0.044085 0.210369
0.139546 0.052780 0.244126
0.152844 0.061475 0.277882
0.177419 0.085244 0.319774
0.218709 0.131356 0.373722
0.259999 0.177469 0.427671
0.301290 0.223581 0.481619
0.342580 0.269694 0.535567
0.152355 0.061155 0.276640
0.175900 0.083548 0.317789
0.217190 0.129660 0.371737
0.258480 0.175772 0.425686
0.299771 0.221885 0.479634
0.341061 0.267997 0.533583
0.382351 0.314110 0.587531
0.423641 0.360222 0.641480
0.215671 0.127964 0.369753
0.256961 0.174076 0.423701
0.298252 0.220188 0.477650
0.339542 0.266301 0.531598
0.380832 0.312413 0.585546
0.422122 0.358525 0.639495
0.463412 0.404638 0.693443
0.504702 0.450750 0.747392
0.296733 0.218492 0.475665
0.338023 0.264604 0.529613
0.379313 0.310717 0.583562
0.420603 0.356829 0.637510
0.461893 0.402941 0.691459
0.503183 0.449054 0.745407
0.544474 0.495166 0.799356
0.585764 0.541279 0.853304
0.377794 0.309020 0.581577
0.419084 0.355133 0.635526
0.460374 0.401245 0.689474
0.501664 0.447357 0.743422
0.542955 0.493470 0.797371
0.584245 0.539582 0.851319
0.625535 0.585695 0.905268
0.666825 0.631807 0.959216
0.458855 0.399549 0.687489
0.500145 0.445661 0.741438
0.541435 0.491773 0.795386
0.582726 0.537886 0.849335
0.624016 0.583998 0.903283
0.665306 0.630111 0.957232
0.709825 0.677832 1.000000
0.766695 0.731709 1.000000
0.079104 0.013260 0.090697
0.092402 0.021955 0.124454
0.105700 0.030650 0.158210
0.118998 0.039345 0.191967
0.132296 0.048040 0.225723
0.145594 0.056735 0.259480
0.158892 0.065430 0.293236
0.196200 0.106218 0.344312
0.105211 0.030330 0.156968
0.118509 0.039025 0.190725
0.131807 0.047720 0.224481
0.145105 0.056415 0.258238
0.158403 0.065110 0.291995
0.194681 0.104522 0.342327
0.235971 0.150634 0.396276
0.277261 0.196747 0.450224
0.131318 0.047400 0.223240
0.144616 0.056095 0.256996
0.157914 0.064790 0.290753
0.193162 0.102825 0.340343
0.234452 0.148938 0.394291
0.275742 0.195050 0.448239
0.317032 0.241163 0.502188
0.358323 0.287275 0.556136
0.157425 0.064470 0.289511
0.191643 0.101129 0.338358
0.232933 0.147241 0.392306
0.274223 0.193354 0.446255
0.315513 0.239466 0.500203
0.356803 0.285578 0.554152
0.398094 0.331691 0.608100
0.439384 0.377803 0.662049
0.231414 0.145545 0.390322
0.272704 0.191657 0.444270
0.313994 0.237770 0.498218
0.355284 0.283882 0.552167
0.396575 0.329994 0.606115
0.437865 0.376107 0.660064
0.479155 0.422219 0.714012
0.520445 0.468332 0.767961
0.312475 0.236073 0.496234
0.353765 0.282186 0.550182
0.395056 0.328298 0.604131
0.436346 0.374410 0.658079
0.477636 0.420523 0.712028
0.518926 0.466635 0.765976
0.560216 0.512748 0.819925
0.601506 0.558860 0.873873
0.393537 0.326602 0.602146
0.434827 0.372714 0.656095
0.476117 0.418826 0.710043
0.517407 0.464939 0.763991
0.558697 0.511051 0.817940
0.599987 0.557164 0.871888
0.641278 0.603276 0.925837
0.682568 0.649388 0.979785
0.474598 0.417130 0.708058
0.515888 0.463242 0.762007
0.557178 0.509355 0.815955
0.598468 0.555467 0.869904
0.639759 0.601579 0.923852
0.681049 0.647692 0.977801
0.731508 0.698374 1.000000
0.788378 0.752251 1.000000
0.084174 0.016575 0.103568
0.097472 0.025270 0.137324
0.110770 0.033965 0.171081
0.124068 0.042660 0.204837
0.137367 0.051355 0.238594
0.150665 0.060050 0.272350
0.170653 0.077687 0.310933
0.211943 0.123800 0.364881
0.110281 0.033645 0.169839
0.123579 0.042340 0.203595
0.136877 0.051035 0.237352
0.150175 0.059730 0.271108
0.169133 0.075991 0.308948
0.210424 0.122103 0.362896
0.251714 0.168215 0.416845
0.293004 0.214328 0.470793
0.136388 0.050715 0.236110
0.149686 0.059410 0.269866
0.167614 0.074294 0.306963
0.208905 0.120407 0.360912
0.250195 0.166519 0.414860
0.291485 0.212631 0.468808
0.332775 0.258744 0.522757
0.374065 0.304856 0.576705
0.166095 0.072598 0.304978
0.207386 0.118710 0.358927
0.248676 0.164823 0.412875
0.289966 0.210935 0.466824
0.331256 0.257047 0.520772
0.372546 0.303160 0.574721
0.413836 0.349272 0.628669
0.455127 0.395385 0.682618
0.247157 0.163126 0.410891
0.288447 0.209239 0.464839
0.329737 0.255351 0.518788
0.371027 0.301463 0.572736
0.412317 0.347576 0.626684
0.453608 0.393688 0.680633
0.494898 0.439801 0.734581
0.536188 0.485913 0.788530
0.328218 0.253655 0.516803
0.369508 0.299767 0.570751
0.410798 0.345879 0.624700
0.452089 0.391992 0.678648
0.493379 0.438104 0.732597
0.534669 0.484216 0.786545
0.575959 0.530329 0.840494
0.617249 0.576441 0.894442
0.409279 0.344183 0.622715
0.450569 0.390295 0.676664
0.491860 0.436408 0.730612
0.533150 0.482520 0.784560
0.574440 0.528632 0.838509
0.615730 0.574745 0.892457
0.657020 0.620857 0.946406
0.698413 0.667021 1.000000
0.490341 0.434711 0.728627
0.531631 0.480824 0.782576
0.572921 0.526936 0.836524
0.614211 0.573048 0.890473
0.655501 0.619161 0.944421
0.696791 0.665273 0.998370
0.753191 0.718916 1.000000
0.810061 0.772793 1.000000
0.089244 0.019891 0.116438
0.102543 0.028585 0.150195
0.115841 0.037280 0.183951
0.129139 0.045975 0.217708
0.142437 0.054670 0.251464
0.155735 0.063365 0.285221
0.186395 0.095269 0.331502
0.227685 0.141381 0.385450
0.115351 0.036960 0.182709
0.128649 0.045655 0.216466
0.141947 0.054350 0.250222
0.155245 0.063045 0.283979
0.184876 0.093572 0.329517
0.226166 0.139684 0.383465
0.267457 0.185797 0.437414
0.308747 0.231909 0.491362
0.141458 0.054030 0.248980
0.154756 0.062725 0.282737
0.183357 0.091876 0.327532
0.224647 0.137988 0.381481
0.265938 0.184100 0.435429
0.307228 0.230213 0.489377
0.348518 0.276325 0.543326
0.389808 0.322438 0.597274
0.181838 0.090179 0.325547
0.223128 0.136292 0.379496
0.264418 0.182404 0.433444
0.305709 0.228516 0.487393
0.346999 0.274629 0.541341
0.388289 0.320741 0.595290
0.429579 0.366854 0.649238
0.470869 0.412966 0.703187
0.262899 0.180707 0.431460
0.304190 0.226820 0.485408
0.345480 0.272932 0.539356
0.386770 0.319045 0.593305
0.428060 0.365157 0.647253
0.469350 0.411269 0.701202
0.510641 0.457382 0.755150
0.551931 0.503494 0.809099
0.343961 0.271236 0.537372
0.385251 0.317348 0.591320
0.426541 0.363461 0.645269
0.467831 0.409573 0.699217
0.509121 0.455685 0.753166
0.550412 0.501798 0.807114
0.591702 0.547910 0.861063
0.632992 0.594023 0.915011
0.425022 0.361764 0.643284
0.466312 0.407877 0.697233
0.507602 0.453989 0.751181
0.548893 0.500101 0.805129
0.590183 0.546214 0.859078
0.631473 0.592326 0.913026
0.672763 0.638439 0.966975
0.720096 0.687562 1.000000
0.506083 0.452293 0.749196
0.547374 0.498405 0.803145
0.588664 0.544517 0.857093
0.629954 0.590630 0.911042
0.671244 0.636742 0.964990
0.718004 0.685580 1.000000
0.774874 0.739457 1.000000
0.831744 0.793335 1.000000
0.094315 0.023206 0.129308
0.107613 0.031901 0.163065
0.120911 0.040595 0.196821
0.134209 0.049290 0.230578
0.147507 0.057985 0.264334
0.160848 0.066737 0.298122
0.202138 0.112850 0.352071
0.243428 0.158962 0.406019
0.120421 0.040276 0.195580
0.133720 0.048970 0.229336
0.147018 0.057665 0.263093
0.160316 0.066360 0.296849
0.200619 0.111153 0.350086
0.241909 0.157266 0.404034
0.283199 0.203378 0.457983
0.324489 0.249491 0.511931
0.146528 0.057345 0.261851
0.159826 0.066040 0.295607
0.199100 0.109457 0.348101
0.240390 0.155569 0.402050
0.281680 0.201682 0.455998
0.322970 0.247794 0.509946
0.364261 0.293906 0.563895
0.405551 0.340019 0.617843
0.197581 0.107760 0.346116
0.238871 0.153873 0.400065
0.280161 0.199985 0.454013
0.321451 0.246098 0.507962
0.362742 0.292210 0.561910
0.404032 0.338322 0.615859
0.445322 0.384435 0.669807
0.486612 0.430547 0.723756
0.278642 0.198289 0.452029
0.319932 0.244401 0.505977
0.361223 0.290514 0.559925
0.402513 0.336626 0.613874
0.443803 0.382738 0.667822
0.485093 0.428851 0.721771
0.526383 0.474963 0.775719
0.567673 0.521076 0.829668
0.359703 0.288817 0.557941
0.400994 0.334930 0.611889
0.442284 0.381042 0.665838
0.483574 0.427154 0.719786
0.524864 0.473267 0.773735
0.566154 0.519379 0.827683
0.607445 0.565491 0.881632
0.648735 0.611604 0.935580
0.440765 0.379346 0.663853
0.482055 0.425458 0.717801
0.523345 0.471570 0.771750
0.564635 0.517683 0.825698
0.605925 0.563795 0.879647
0.647216 0.609907 0.933595
0.688506 0.656020 0.987544
0.741779 0.708104 1.000000
0.521826 0.469874 0.769765
0.563116 0.515986 0.823714
0.604406 0.562099 0.877662
0.645697 0.608211 0.931611
0.686987 0.654323 0.985559
0.739687 0.706122 1.000000
0.796557 0.759999 1.000000
0.853427 0.813876 1.000000
