purple_tint.cube
#Created by: Affinity Photo (Serif Europe Ltd.)
TITLE "38C3_Purple_Tint"
#LUT size
LUT_3D_SIZE 5
#data domain
#LUT data points
DOMAIN_MIN 0.000000 0.000000 0.000000
DOMAIN_MAX 0.903226 0.903226 0.903226
0.058824 0.000000 0.039216
0.082095 0.015216 0.098290
0.105367 0.030432 0.157364
0.128638 0.045648 0.216437
0.151910 0.060864 0.275511
0.104511 0.029872 0.155190
0.127782 0.045088 0.214264
0.151054 0.060304 0.273338
0.202828 0.113621 0.352973
0.275086 0.194318 0.447382
0.150198 0.059744 0.271165
0.200170 0.110652 0.349499
0.272428 0.191349 0.443909
0.344686 0.272046 0.538319
0.416943 0.352742 0.632729
0.269770 0.188380 0.440436
0.342027 0.269077 0.534846
0.414285 0.349773 0.629256
0.486543 0.430470 0.723665
0.558801 0.511167 0.818075
0.411627 0.346805 0.625782
0.483885 0.427501 0.720192
0.556143 0.508198 0.814602
0.628400 0.588895 0.909012
0.701646 0.670084 1.000000
0.067696 0.005801 0.061739
0.090968 0.021017 0.120813
0.114239 0.036233 0.179887
0.137511 0.051449 0.238961
0.160783 0.066665 0.298035
0.113383 0.035674 0.177713
0.136655 0.050890 0.236787
0.159926 0.066106 0.295861
0.230378 0.144388 0.388968
0.302636 0.225085 0.483378
0.159070 0.065546 0.293688
0.227720 0.141419 0.385495
0.299978 0.222116 0.479905
0.372236 0.302813 0.574315
0.444493 0.383509 0.668725
0.297319 0.219147 0.476432
0.369577 0.299844 0.570841
0.441835 0.380541 0.665251
0.514093 0.461237 0.759661
0.586351 0.541934 0.854071
0.439177 0.377572 0.661778
0.511435 0.458269 0.756188
0.583692 0.538965 0.850598
0.655950 0.619662 0.945008
0.739591 0.706032 1.000000
0.076569 0.011603 0.084262
0.099841 0.026819 0.143336
0.123112 0.042035 0.202410
0.146384 0.057251 0.261484
0.188329 0.097428 0.334027
0.122256 0.041475 0.200237
0.145528 0.056691 0.259311
0.185670 0.094459 0.330554
0.257928 0.175156 0.424964
0.330186 0.255852 0.519374
0.183012 0.091490 0.327081
0.255270 0.172187 0.421491
0.327528 0.252883 0.515901
0.399785 0.333580 0.610310
0.472043 0.414277 0.704720
0.324869 0.249915 0.512427
0.397127 0.330611 0.606837
0.469385 0.411308 0.701247
0.541643 0.492005 0.795657
0.613900 0.572701 0.890067
0.466727 0.408339 0.697774
0.538984 0.489036 0.792184
0.611242 0.569733 0.886593
0.683500 0.650429 0.981003
0.777537 0.741980 1.000000
0.085442 0.017404 0.106785
0.108713 0.032620 0.165859
0.131985 0.047836 0.224933
0.155257 0.063052 0.284007
0.215878 0.128195 0.370023
0.131129 0.047277 0.222760
0.154400 0.062493 0.281834
0.213220 0.125226 0.366550
0.285478 0.205923 0.460960
0.357736 0.286619 0.555370
0.210562 0.122257 0.363077
0.282820 0.202954 0.457487
0.355077 0.283651 0.551896
0.427335 0.364347 0.646306
0.499593 0.445044 0.740716
0.352419 0.280682 0.548423
0.424677 0.361379 0.642833
0.496935 0.442075 0.737243
0.569192 0.522772 0.831653
0.641450 0.603469 0.926062
0.494276 0.439107 0.733770
0.566534 0.519803 0.828179
0.638792 0.600500 0.922589
0.715959 0.683643 1.000000
0.815482 0.777928 1.000000
0.094315 0.023206 0.129308
0.117586 0.038422 0.188382
0.140858 0.053638 0.247456
0.171170 0.078266 0.311609
0.243428 0.158962 0.406019
0.140002 0.053078 0.245283
0.168512 0.075297 0.308136
0.240770 0.155993 0.402546
0.313028 0.236690 0.496956
0.385285 0.317387 0.591365
0.238112 0.153025 0.399072
0.310369 0.233721 0.493482
0.382627 0.314418 0.587892
0.454885 0.395115 0.682302
0.527143 0.475811 0.776712
0.379969 0.311449 0.584419
0.452227 0.392146 0.678829
0.524484 0.472843 0.773238
0.596742 0.553539 0.867648
0.669000 0.634236 0.962058
0.521826 0.469874 0.769765
0.594084 0.550571 0.864175
0.666342 0.631267 0.958585
0.753904 0.719591 1.000000
0.853427 0.813876 1.000000
