red_tint.cube
#Created by: Affinity Photo (Serif Europe Ltd.)
TITLE "38C3_Red_Tint"
#LUT size
LUT_3D_SIZE 9
#data domain
DOMAIN_MIN 0.0 0.0 0.0
DOMAIN_MAX 1.0 1.0 1.0
#LUT data points
0.058824 0.000000 0.039216
0.101843 0.000000 0.043331
0.144863 0.000000 0.047446
0.187882 0.000000 0.051561
0.230902 0.000000 0.055676
0.273922 0.000000 0.059791
0.316941 0.000000 0.063907
0.359961 0.000000 0.068022
0.402980 0.000000 0.072137
0.143280 0.000000 0.047295
0.186300 0.000000 0.051410
0.229319 0.000000 0.055525
0.272339 0.000000 0.059640
0.315358 0.000000 0.063755
0.358378 0.000000 0.067870
0.401398 0.000000 0.071986
0.444417 0.000000 0.076101
0.498367 0.024423 0.096539
0.227737 0.000000 0.055374
0.270756 0.000000 0.059489
0.313776 0.000000 0.063604
0.356795 0.000000 0.067719
0.399815 0.000000 0.071834
0.442835 0.000000 0.075949
0.496234 0.023193 0.095565
0.554219 0.056635 0.122031
0.612205 0.090076 0.148496
0.312193 0.000000 0.063452
0.355213 0.000000 0.067568
0.398232 0.000000 0.071683
0.441252 0.000000 0.075798
0.494101 0.021963 0.094592
0.552086 0.055404 0.121057
0.610072 0.088846 0.147522
0.668058 0.122287 0.173988
0.726043 0.155729 0.200453
0.396650 0.000000 0.071531
0.439669 0.000000 0.075647
0.491967 0.020732 0.093618
0.549953 0.054174 0.120083
0.607939 0.087615 0.146549
0.665924 0.121057 0.173014
0.723910 0.154499 0.199479
0.781896 0.187940 0.225945
0.839881 0.221382 0.252410
0.489834 0.019502 0.092644
0.547820 0.052944 0.119110
0.605805 0.086385 0.145575
0.663791 0.119827 0.172040
0.721777 0.153268 0.198506
0.779762 0.186710 0.224971
0.837748 0.220151 0.251436
0.895734 0.253593 0.277902
0.953719 0.287034 0.304367
0.603672 0.085155 0.144601
0.661658 0.118596 0.171067
0.719643 0.152038 0.197532
0.777629 0.185480 0.223997
0.835615 0.218921 0.250463
0.893601 0.252363 0.276928
0.951586 0.285804 0.303394
0.999920 0.326606 0.339166
0.999439 0.404636 0.422013
0.717510 0.150808 0.196558
0.775496 0.184249 0.223024
0.833482 0.217691 0.249489
0.891467 0.251132 0.275955
0.949453 0.284574 0.302420
0.999938 0.323735 0.336118
0.999457 0.401765 0.418965
0.998975 0.479796 0.501811
0.998493 0.557826 0.584658
0.831348 0.216461 0.248516
0.889334 0.249902 0.274981
0.947320 0.283344 0.301446
0.999956 0.320865 0.333070
0.999474 0.398895 0.415917
0.998993 0.476925 0.498764
0.998511 0.554955 0.581610
0.998029 0.632985 0.664457
0.997548 0.711015 0.747304
0.075226 0.000000 0.040785
0.118245 0.000000 0.044900
0.161265 0.000000 0.049015
0.204284 0.000000 0.053130
0.247304 0.000000 0.057245
0.290324 0.000000 0.061360
0.333343 0.000000 0.065476
0.376363 0.000000 0.069591
0.419382 0.000000 0.073706
0.159682 0.000000 0.048864
0.202702 0.000000 0.052979
0.245721 0.000000 0.057094
0.288741 0.000000 0.061209
0.331761 0.000000 0.065324
0.374780 0.000000 0.069439
0.417800 0.000000 0.073555
0.462490 0.003732 0.080164
0.520475 0.037174 0.106629
0.244139 0.000000 0.056943
0.287158 0.000000 0.061058
0.330178 0.000000 0.065173
0.373198 0.000000 0.069288
0.416217 0.000000 0.073403
0.460356 0.002502 0.079190
0.518342 0.035943 0.105656
0.576328 0.069385 0.132121
0.634313 0.102826 0.158586
0.328595 0.000000 0.065021
0.371615 0.000000 0.069137
0.414634 0.000000 0.073252
0.458223 0.001271 0.078217
0.516209 0.034713 0.104682
0.574194 0.068155 0.131147
0.632180 0.101596 0.157613
0.690166 0.135038 0.184078
0.748151 0.168479 0.210543
0.413052 0.000000 0.073100
0.456090 0.000041 0.077243
0.514076 0.033483 0.103708
0.572061 0.066924 0.130174
0.630047 0.100366 0.156639
0.688033 0.133807 0.183104
0.746018 0.167249 0.209570
0.804004 0.200690 0.236035
0.861989 0.234132 0.262501
0.511942 0.032252 0.102735
0.569928 0.065694 0.129200
0.627914 0.099135 0.155665
0.685899 0.132577 0.182131
0.743885 0.166019 0.208596
0.801871 0.199460 0.235062
0.859856 0.232902 0.261527
0.917842 0.266343 0.287992
0.975828 0.299785 0.314458
0.625780 0.097905 0.154692
0.683766 0.131347 0.181157
0.741752 0.164788 0.207623
0.799737 0.198230 0.234088
0.857723 0.231671 0.260553
0.915709 0.265113 0.287019
0.973694 0.298554 0.313484
0.999737 0.356357 0.370753
0.999255 0.434387 0.453600
0.739618 0.163558 0.206649
0.797604 0.197000 0.233114
0.855590 0.230441 0.259580
0.913575 0.263883 0.286045
0.971561 0.297324 0.312510
0.999755 0.353486 0.367705
0.999273 0.431516 0.450552
0.998791 0.509546 0.533398
0.998310 0.587576 0.616245
0.853456 0.229211 0.258606
0.911442 0.262652 0.285071
0.969428 0.296094 0.311537
0.999772 0.350615 0.364657
0.999291 0.428645 0.447504
0.998809 0.506675 0.530351
0.998327 0.584705 0.613197
0.997846 0.662735 0.696044
0.997364 0.740766 0.778891
0.091628 0.000000 0.042354
0.134647 0.000000 0.046469
0.177667 0.000000 0.050584
0.220687 0.000000 0.054699
0.263706 0.000000 0.058814
0.306726 0.000000 0.062929
0.349745 0.000000 0.067045
0.392765 0.000000 0.071160
0.435785 0.000000 0.075275
0.176084 0.000000 0.050433
0.219104 0.000000 0.054548
0.262124 0.000000 0.058663
0.305143 0.000000 0.062778
0.348163 0.000000 0.066893
0.391182 0.000000 0.071008
0.434202 0.000000 0.075124
0.484598 0.016482 0.090254
0.542584 0.049924 0.116720
0.260541 0.000000 0.058511
0.303560 0.000000 0.062627
0.346580 0.000000 0.066742
0.389600 0.000000 0.070857
0.432619 0.000000 0.074972
0.482465 0.015252 0.089281
0.540450 0.048694 0.115746
0.598436 0.082135 0.142211
0.656422 0.115577 0.168677
0.344997 0.000000 0.066590
0.388017 0.000000 0.070706
0.431037 0.000000 0.074821
0.480331 0.014022 0.088307
0.538317 0.047463 0.114772
0.596303 0.080905 0.141238
0.654288 0.114346 0.167703
0.712274 0.147788 0.194169
0.770260 0.181229 0.220634
0.429454 0.000000 0.074669
0.478198 0.012791 0.087333
0.536184 0.046233 0.113799
0.594169 0.079674 0.140264
0.652155 0.113116 0.166730
0.710141 0.146558 0.193195
0.768126 0.179999 0.219660
0.826112 0.213441 0.246126
0.884098 0.246882 0.272591
0.534050 0.045003 0.112825
0.592036 0.078444 0.139291
0.650022 0.111886 0.165756
0.708008 0.145327 0.192221
0.765993 0.178769 0.218687
0.823979 0.212210 0.245152
0.881965 0.245652 0.271617
0.939950 0.279094 0.298083
0.997936 0.312535 0.324548
0.647889 0.110655 0.164782
0.705874 0.144097 0.191248
0.763860 0.177539 0.217713
0.821846 0.210980 0.244178
0.879831 0.244422 0.270644
0.937817 0.277863 0.297109
0.995803 0.311305 0.323574
0.999553 0.386107 0.402340
0.999072 0.464137 0.485187
0.761727 0.176308 0.216739
0.819712 0.209750 0.243205
0.877698 0.243191 0.269670
0.935684 0.276633 0.296135
0.993669 0.310075 0.322601
0.999571 0.383237 0.399292
0.999089 0.461267 0.482139
0.998608 0.539297 0.564986
0.998126 0.617327 0.647832
0.875565 0.241961 0.268696
0.933550 0.275403 0.295162
0.991536 0.308844 0.321627
0.999589 0.380366 0.396244
0.999107 0.458396 0.479091
0.998625 0.536426 0.561938
0.998144 0.614456 0.644784
0.997662 0.692486 0.727631
0.997180 0.770516 0.810478
0.108030 0.000000 0.043923
0.151050 0.000000 0.048038
0.194069 0.000000 0.052153
0.237089 0.000000 0.056268
0.280108 0.000000 0.060383
0.323128 0.000000 0.064498
0.366147 0.000000 0.068614
0.409167 0.000000 0.072729
0.452187 0.000000 0.076844
0.192486 0.000000 0.052002
0.235506 0.000000 0.056117
0.278526 0.000000 0.060232
0.321545 0.000000 0.064347
0.364565 0.000000 0.068462
0.407584 0.000000 0.072577
0.450604 0.000000 0.076693
0.506706 0.029233 0.100345
0.564692 0.062674 0.126810
0.276943 0.000000 0.060080
0.319963 0.000000 0.064196
0.362982 0.000000 0.068311
0.406002 0.000000 0.072426
0.449021 0.000000 0.076541
0.504573 0.028002 0.099371
0.562558 0.061444 0.125837
0.620544 0.094885 0.152302
0.678530 0.128327 0.178767
0.361400 0.000000 0.068159
0.404419 0.000000 0.072275
0.447439 0.000000 0.076390
0.502440 0.026772 0.098398
0.560425 0.060214 0.124863
0.618411 0.093655 0.151328
0.676397 0.127097 0.177794
0.734382 0.160538 0.204259
0.792368 0.193980 0.230724
0.445856 0.000000 0.076238
0.500306 0.025542 0.097424
0.558292 0.058983 0.123889
0.616278 0.092425 0.150355
0.674263 0.125866 0.176820
0.732249 0.159308 0.203285
0.790235 0.192749 0.229751
0.848220 0.226191 0.256216
0.906206 0.259632 0.282681
0.556159 0.057753 0.122916
0.614144 0.091194 0.149381
0.672130 0.124636 0.175846
0.730116 0.158078 0.202312
0.788101 0.191519 0.228777
0.846087 0.224961 0.255242
0.904073 0.258402 0.281708
0.962058 0.291844 0.308173
0.999834 0.340698 0.354128
0.669997 0.123406 0.174873
0.727983 0.156847 0.201338
0.785968 0.190289 0.227803
0.843954 0.223730 0.254269
0.901940 0.257172 0.280734
0.959925 0.290614 0.307200
0.999851 0.337828 0.351080
0.999370 0.415858 0.433927
0.998888 0.493888 0.516774
0.783835 0.189059 0.226830
0.841821 0.222500 0.253295
0.899806 0.255942 0.279761
0.957792 0.289383 0.306226
0.999869 0.334957 0.348033
0.999387 0.412987 0.430879
0.998906 0.491017 0.513726
0.998424 0.569047 0.596573
0.997942 0.647077 0.679419
0.897673 0.254711 0.278787
0.955659 0.288153 0.305252
0.999887 0.332086 0.344985
0.999405 0.410116 0.427831
0.998923 0.488147 0.510678
0.998442 0.566177 0.593525
0.997960 0.644207 0.676371
0.997478 0.722237 0.759218
0.996997 0.800267 0.842065
0.124432 0.000000 0.045492
0.167452 0.000000 0.049607
0.210471 0.000000 0.053722
0.253491 0.000000 0.057837
0.296510 0.000000 0.061952
0.339530 0.000000 0.066067
0.382550 0.000000 0.070183
0.425569 0.000000 0.074298
0.472962 0.009772 0.084944
0.208889 0.000000 0.053571
0.251908 0.000000 0.057686
0.294928 0.000000 0.061801
0.337947 0.000000 0.065916
0.380967 0.000000 0.070031
0.423987 0.000000 0.074146
0.470829 0.008541 0.083970
0.528814 0.041983 0.110435
0.586800 0.075424 0.136901
0.293345 0.000000 0.061649
0.336365 0.000000 0.065765
0.379384 0.000000 0.069880
0.422404 0.000000 0.073995
0.468695 0.007311 0.082996
0.526681 0.040753 0.109462
0.584667 0.074194 0.135927
0.642652 0.107636 0.162392
0.700638 0.141077 0.188858
0.377802 0.000000 0.069728
0.420821 0.000000 0.073844
0.466562 0.006081 0.082023
0.524548 0.039522 0.108488
0.582534 0.072964 0.134953
0.640519 0.106405 0.161419
0.698505 0.139847 0.187884
0.756491 0.173288 0.214350
0.814476 0.206730 0.240815
0.464429 0.004850 0.081049
0.522415 0.038292 0.107514
0.580400 0.071734 0.133980
0.638386 0.105175 0.160445
0.696372 0.138617 0.186911
0.754357 0.172058 0.213376
0.812343 0.205500 0.239841
0.870329 0.238941 0.266307
0.928314 0.272383 0.292772
0.578267 0.070503 0.133006
0.636253 0.103945 0.159471
0.694238 0.137386 0.185937
0.752224 0.170828 0.212402
0.810210 0.204269 0.238868
0.868195 0.237711 0.265333
0.926181 0.271153 0.291798
0.984167 0.304594 0.318264
0.999650 0.370449 0.385715
0.692105 0.136156 0.184963
0.750091 0.169598 0.211429
0.808076 0.203039 0.237894
0.866062 0.236481 0.264359
0.924048 0.269922 0.290825
0.982033 0.303364 0.317290
0.999668 0.367578 0.382667
0.999186 0.445608 0.465514
0.998704 0.523638 0.548361
0.805943 0.201809 0.236920
0.863929 0.235250 0.263386
0.921915 0.268692 0.289851
0.979900 0.302134 0.316316
0.999685 0.364708 0.379620
0.999204 0.442738 0.462466
0.998722 0.520768 0.545313
0.998240 0.598798 0.628160
0.997759 0.676828 0.711006
0.919781 0.267462 0.288877
0.977767 0.300903 0.315343
0.999703 0.361837 0.376572
0.999221 0.439867 0.459418
0.998740 0.517897 0.542265
0.998258 0.595927 0.625112
0.997776 0.673957 0.707958
0.997295 0.751987 0.790805
0.996813 0.830017 0.873652
0.140834 0.000000 0.047061
0.183854 0.000000 0.051176
0.226873 0.000000 0.055291
0.269893 0.000000 0.059406
0.312913 0.000000 0.063521
0.355932 0.000000 0.067636
0.398952 0.000000 0.071752
0.441971 0.000000 0.075867
0.495070 0.022522 0.095034
0.225291 0.000000 0.055140
0.268310 0.000000 0.059255
0.311330 0.000000 0.063370
0.354349 0.000000 0.067485
0.397369 0.000000 0.071600
0.440389 0.000000 0.075715
0.492937 0.021292 0.094060
0.550923 0.054733 0.120526
0.608908 0.088175 0.146991
0.309747 0.000000 0.063218
0.352767 0.000000 0.067334
0.395786 0.000000 0.071449
0.438806 0.000000 0.075564
0.490804 0.020061 0.093087
0.548789 0.053503 0.119552
0.606775 0.086944 0.146018
0.664761 0.120386 0.172483
0.722746 0.153828 0.198948
0.394204 0.000000 0.071297
0.437223 0.000000 0.075413
0.488670 0.018831 0.092113
0.546656 0.052273 0.118579
0.604642 0.085714 0.145044
0.662627 0.119156 0.171509
0.720613 0.152597 0.197975
0.778599 0.186039 0.224440
0.836584 0.219480 0.250905
0.486537 0.017601 0.091140
0.544523 0.051042 0.117605
0.602508 0.084484 0.144070
0.660494 0.117925 0.170536
0.718480 0.151367 0.197001
0.776466 0.184808 0.223466
0.834451 0.218250 0.249932
0.892437 0.251692 0.276397
0.950423 0.285133 0.302862
0.600375 0.083254 0.143097
0.658361 0.116695 0.169562
0.716347 0.150137 0.196027
0.774332 0.183578 0.222493
0.832318 0.217020 0.248958
0.890304 0.250461 0.275423
0.948289 0.283903 0.301889
0.999948 0.322170 0.334456
0.999466 0.400200 0.417302
0.714213 0.148906 0.195054
0.772199 0.182348 0.221519
0.830185 0.215789 0.247984
0.888170 0.249231 0.274450
0.946156 0.282673 0.300915
0.999966 0.319299 0.331408
0.999484 0.397329 0.414254
0.999002 0.475359 0.497101
0.998521 0.553389 0.579948
0.828052 0.214559 0.247011
0.886037 0.248001 0.273476
0.944023 0.281442 0.299942
0.999983 0.316428 0.328360
0.999502 0.394458 0.411207
0.999020 0.472488 0.494053
0.998538 0.550518 0.576900
0.998057 0.628549 0.659747
0.997575 0.706579 0.742593
0.941890 0.280212 0.298968
0.999875 0.313653 0.325433
0.999519 0.391588 0.408159
0.999038 0.469618 0.491005
0.998556 0.547648 0.573852
0.998074 0.625678 0.656699
0.997593 0.703708 0.739545
0.997111 0.781738 0.822392
0.996629 0.859768 0.905239
0.157236 0.000000 0.048630
0.200256 0.000000 0.052745
0.243275 0.000000 0.056860
0.286295 0.000000 0.060975
0.329315 0.000000 0.065090
0.372334 0.000000 0.069205
0.415354 0.000000 0.073321
0.459193 0.001831 0.078659
0.517178 0.035272 0.105125
0.241693 0.000000 0.056709
0.284712 0.000000 0.060824
0.327732 0.000000 0.064939
0.370752 0.000000 0.069054
0.413771 0.000000 0.073169
0.457060 0.000600 0.077686
0.515045 0.034042 0.104151
0.573031 0.067483 0.130616
0.631017 0.100925 0.157082
0.326149 0.000000 0.064787
0.369169 0.000000 0.068903
0.412189 0.000000 0.073018
0.455208 0.000000 0.077133
0.512912 0.032812 0.103177
0.570898 0.066253 0.129643
0.628883 0.099695 0.156108
0.686869 0.133136 0.182573
0.744855 0.166578 0.209039
0.410606 0.000000 0.072866
0.453626 0.000000 0.076982
0.510779 0.031581 0.102204
0.568764 0.065023 0.128669
0.626750 0.098464 0.155134
0.684736 0.131906 0.181600
0.742721 0.165347 0.208065
0.800707 0.198789 0.234530
0.858693 0.232231 0.260996
0.508645 0.030351 0.101230
0.566631 0.063793 0.127695
0.624617 0.097234 0.154161
0.682602 0.130676 0.180626
0.740588 0.164117 0.207091
0.798574 0.197559 0.233557
0.856560 0.231000 0.260022
0.914545 0.264442 0.286488
0.972531 0.297883 0.312953
0.622483 0.096004 0.153187
0.680469 0.129445 0.179652
0.738455 0.162887 0.206118
0.796440 0.196328 0.232583
0.854426 0.229770 0.259049
0.912412 0.263212 0.285514
0.970398 0.296653 0.311979
0.999764 0.351920 0.366043
0.999283 0.429950 0.448889
0.736322 0.161657 0.205144
0.794307 0.195098 0.231610
0.852293 0.228540 0.258075
0.910279 0.261981 0.284540
0.968264 0.295423 0.311006
0.999782 0.349050 0.362995
0.999300 0.427080 0.445841
0.998819 0.505109 0.528688
0.998337 0.583140 0.611535
0.850160 0.227309 0.257101
0.908145 0.260751 0.283567
0.966131 0.294193 0.310032
0.999800 0.346179 0.359947
0.999318 0.424209 0.442794
0.998836 0.502239 0.525640
0.998355 0.580269 0.608487
0.997873 0.658299 0.691334
0.997391 0.736329 0.774180
0.963998 0.292962 0.309058
0.999817 0.343308 0.356899
0.999336 0.421338 0.439746
0.998854 0.499368 0.522592
0.998372 0.577398 0.605439
0.997891 0.655428 0.688286
0.997409 0.733458 0.771132
0.996927 0.811488 0.853979
0.996446 0.889519 0.936826
0.173638 0.000000 0.050199
0.216658 0.000000 0.054314
0.259678 0.000000 0.058429
0.302697 0.000000 0.062544
0.345717 0.000000 0.066659
0.388736 0.000000 0.070774
0.431756 0.000000 0.074890
0.481301 0.014581 0.088750
0.539287 0.048022 0.115215
0.258095 0.000000 0.058278
0.301115 0.000000 0.062393
0.344134 0.000000 0.066508
0.387154 0.000000 0.070623
0.430173 0.000000 0.074738
0.479168 0.013351 0.087776
0.537153 0.046792 0.114241
0.595139 0.080234 0.140707
0.653125 0.113675 0.167172
0.342551 0.000000 0.066356
0.385571 0.000000 0.070472
0.428591 0.000000 0.074587
0.477034 0.012120 0.086802
0.535020 0.045562 0.113268
0.593006 0.079003 0.139733
0.650991 0.112445 0.166198
0.708977 0.145887 0.192664
0.766963 0.179328 0.219129
0.427008 0.000000 0.074435
0.474901 0.010890 0.085829
0.532887 0.044332 0.112294
0.590873 0.077773 0.138759
0.648858 0.111215 0.165225
0.706844 0.144656 0.191690
0.764830 0.178098 0.218156
0.822815 0.211539 0.244621
0.880801 0.244981 0.271086
0.530754 0.043101 0.111320
0.588739 0.076543 0.137786
0.646725 0.109984 0.164251
0.704711 0.143426 0.190717
0.762696 0.176867 0.217182
0.820682 0.210309 0.243647
0.878668 0.243751 0.270113
0.936653 0.277192 0.296578
0.994639 0.310634 0.323043
0.644592 0.108754 0.163278
0.702577 0.142196 0.189743
0.760563 0.175637 0.216208
0.818549 0.209079 0.242674
0.876534 0.242520 0.269139
0.934520 0.275962 0.295604
0.992506 0.309403 0.322070
0.999581 0.381671 0.397630
0.999099 0.459701 0.480476
0.758430 0.174407 0.215235
0.816415 0.207848 0.241700
0.874401 0.241290 0.268165
0.932387 0.274732 0.294631
0.990372 0.308173 0.321096
0.999598 0.378800 0.394582
0.999117 0.456830 0.477428
0.998635 0.534860 0.560275
0.998153 0.612890 0.643122
0.872268 0.240060 0.267192
0.930254 0.273501 0.293657
0.988239 0.306943 0.320122
0.999616 0.375929 0.391534
0.999134 0.453959 0.474381
0.998653 0.531989 0.557227
0.998171 0.610020 0.640074
0.997689 0.688050 0.722921
0.997208 0.766080 0.805767
0.986106 0.305713 0.319149
0.999634 0.373059 0.388486
0.999152 0.451089 0.471333
0.998670 0.529119 0.554179
0.998189 0.607149 0.637026
0.997707 0.685179 0.719873
0.997225 0.763209 0.802719
0.996744 0.841239 0.885566
0.996262 0.919269 0.968413
0.190041 0.000000 0.051768
0.233060 0.000000 0.055883
0.276080 0.000000 0.059998
0.319099 0.000000 0.064113
0.362119 0.000000 0.068228
0.405139 0.000000 0.072343
0.448158 0.000000 0.076459
0.503409 0.027331 0.098840
0.561395 0.060773 0.125305
0.274497 0.000000 0.059847
0.317517 0.000000 0.063962
0.360536 0.000000 0.068077
0.403556 0.000000 0.072192
0.446575 0.000000 0.076307
0.501276 0.026101 0.097866
0.559262 0.059542 0.124332
0.617247 0.092984 0.150797
0.675233 0.126426 0.177263
0.358954 0.000000 0.067925
0.401973 0.000000 0.072041
0.444993 0.000000 0.076156
0.499143 0.024871 0.096893
0.557128 0.058312 0.123358
0.615114 0.091754 0.149824
0.673100 0.125195 0.176289
0.731085 0.158637 0.202754
0.789071 0.192078 0.229220
0.443410 0.000000 0.076004
0.497009 0.023640 0.095919
0.554995 0.057082 0.122385
0.612981 0.090523 0.148850
0.670967 0.123965 0.175315
0.728952 0.157407 0.201781
0.786938 0.190848 0.228246
0.844924 0.224290 0.254711
0.902909 0.257731 0.281177
0.552862 0.055852 0.121411
0.610848 0.089293 0.147876
0.668833 0.122735 0.174342
0.726819 0.156176 0.200807
0.784805 0.189618 0.227272
0.842790 0.223059 0.253738
0.900776 0.256501 0.280203
0.958762 0.289942 0.306669
0.999861 0.336262 0.349418
0.666700 0.121504 0.173368
0.724686 0.154946 0.199833
0.782671 0.188388 0.226299
0.840657 0.221829 0.252764
0.898643 0.255271 0.279230
0.956628 0.288712 0.305695
0.999879 0.333391 0.346370
0.999397 0.411421 0.429217
0.998915 0.489451 0.512063
0.780538 0.187157 0.225325
0.838524 0.220599 0.251791
0.896509 0.254040 0.278256
0.954495 0.287482 0.304721
0.999896 0.330521 0.343322
0.999415 0.408551 0.426169
0.998933 0.486581 0.509016
0.998451 0.564611 0.591862
0.997970 0.642641 0.674709
0.894376 0.252810 0.277282
0.952362 0.286252 0.303748
0.999914 0.327650 0.340274
0.999432 0.405680 0.423121
0.998951 0.483710 0.505968
0.998469 0.561740 0.588814
0.997987 0.639770 0.671661
0.997506 0.717800 0.754508
0.997024 0.795830 0.837355
0.999932 0.324779 0.337226
0.999450 0.402809 0.420073
0.998968 0.480839 0.502920
0.998487 0.558869 0.585766
0.998005 0.636900 0.668613
0.997523 0.714930 0.751460
0.997042 0.792960 0.834307
0.996560 0.870990 0.917153
0.996078 0.949020 1.000000
