red_tint.cube
#Created by: Affinity Photo (Serif Europe Ltd.)
TITLE "38C3_Red_Tint"
#LUT size
LUT_3D_SIZE 5
#data domain
DOMAIN_MIN 0.0 0.0 0.0
DOMAIN_MAX 1.0 1.0 1.0
#LUT data points
0.058824 0.000000 0.039216
0.144863 0.000000 0.047446
0.230902 0.000000 0.055676
0.316941 0.000000 0.063907
0.402980 0.000000 0.072137
0.227737 0.000000 0.055374
0.313776 0.000000 0.063604
0.399815 0.000000 0.071834
0.496234 0.023193 0.095565
0.612205 0.090076 0.148496
0.396650 0.000000 0.071531
0.491967 0.020732 0.093618
0.607939 0.087615 0.146549
0.723910 0.154499 0.199479
0.839881 0.221382 0.252410
0.603672 0.085155 0.144601
0.719643 0.152038 0.197532
0.835615 0.218921 0.250463
0.951586 0.285804 0.303394
0.999439 0.404636 0.422013
0.831348 0.216461 0.248516
0.947320 0.283344 0.301446
0.999474 0.398895 0.415917
0.998511 0.554955 0.581610
0.997548 0.711015 0.747304
0.091628 0.000000 0.042354
0.177667 0.000000 0.050584
0.263706 0.000000 0.058814
0.349745 0.000000 0.067045
0.435785 0.000000 0.075275
0.260541 0.000000 0.058511
0.346580 0.000000 0.066742
0.432619 0.000000 0.074972
0.540450 0.048694 0.115746
0.656422 0.115577 0.168677
0.429454 0.000000 0.074669
0.536184 0.046233 0.113799
0.652155 0.113116 0.166730
0.768126 0.179999 0.219660
0.884098 0.246882 0.272591
0.647889 0.110655 0.164782
0.763860 0.177539 0.217713
0.879831 0.244422 0.270644
0.995803 0.311305 0.323574
0.999072 0.464137 0.485187
0.875565 0.241961 0.268696
0.991536 0.308844 0.321627
0.999107 0.458396 0.479091
0.998144 0.614456 0.644784
0.997180 0.770516 0.810478
0.124432 0.000000 0.045492
0.210471 0.000000 0.053722
0.296510 0.000000 0.061952
0.382550 0.000000 0.070183
0.472962 0.009772 0.084944
0.293345 0.000000 0.061649
0.379384 0.000000 0.069880
0.468695 0.007311 0.082996
0.584667 0.074194 0.135927
0.700638 0.141077 0.188858
0.464429 0.004850 0.081049
0.580400 0.071734 0.133980
0.696372 0.138617 0.186911
0.812343 0.205500 0.239841
0.928314 0.272383 0.292772
0.692105 0.136156 0.184963
0.808076 0.203039 0.237894
0.924048 0.269922 0.290825
0.999668 0.367578 0.382667
0.998704 0.523638 0.548361
0.919781 0.267462 0.288877
0.999703 0.361837 0.376572
0.998740 0.517897 0.542265
0.997776 0.673957 0.707958
0.996813 0.830017 0.873652
0.157236 0.000000 0.048630
0.243275 0.000000 0.056860
0.329315 0.000000 0.065090
0.415354 0.000000 0.073321
0.517178 0.035272 0.105125
0.326149 0.000000 0.064787
0.412189 0.000000 0.073018
0.512912 0.032812 0.103177
0.628883 0.099695 0.156108
0.744855 0.166578 0.209039
0.508645 0.030351 0.101230
0.624617 0.097234 0.154161
0.740588 0.164117 0.207091
0.856560 0.231000 0.260022
0.972531 0.297883 0.312953
0.736322 0.161657 0.205144
0.852293 0.228540 0.258075
0.968264 0.295423 0.311006
0.999300 0.427080 0.445841
0.998337 0.583140 0.611535
0.963998 0.292962 0.309058
0.999336 0.421338 0.439746
0.998372 0.577398 0.605439
0.997409 0.733458 0.771132
0.996446 0.889519 0.936826
0.190041 0.000000 0.051768
0.276080 0.000000 0.059998
0.362119 0.000000 0.068228
0.448158 0.000000 0.076459
0.561395 0.060773 0.125305
0.358954 0.000000 0.067925
0.444993 0.000000 0.076156
0.557128 0.058312 0.123358
0.673100 0.125195 0.176289
0.789071 0.192078 0.229220
0.552862 0.055852 0.121411
0.668833 0.122735 0.174342
0.784805 0.189618 0.227272
0.900776 0.256501 0.280203
0.999861 0.336262 0.349418
0.780538 0.187157 0.225325
0.896509 0.254040 0.278256
0.999896 0.330521 0.343322
0.998933 0.486581 0.509016
0.997970 0.642641 0.674709
0.999932 0.324779 0.337226
0.998968 0.480839 0.502920
0.998005 0.636900 0.668613
0.997042 0.792960 0.834307
0.996078 0.949020 1.000000
