red_tint.cube
#Created by: Affinity Photo (Serif Europe Ltd.)
TITLE "38C3_Red_Tint"
#LUT size
LUT_3D_SIZE 17
#data domain
DOMAIN_MIN 0.0 0.0 0.0
DOMAIN_MAX 1.0 1.0 1.0
#LUT data points
0.058824 0.000000 0.039216
0.080333 0.000000 0.041273
0.101843 0.000000 0.043331
0.123353 0.000000 0.045388
0.144863 0.000000 0.047446
0.166373 0.000000 0.049504
0.187882 0.000000 0.051561
0.209392 0.000000 0.053619
0.230902 0.000000 0.055676
0.252412 0.000000 0.057734
0.273922 0.000000 0.059791
0.295431 0.000000 0.061849
0.316941 0.000000 0.063907
0.338451 0.000000 0.065964
0.359961 0.000000 0.068022
0.381471 0.000000 0.070079
0.402980 0.000000 0.072137
0.101052 0.000000 0.043255
0.122562 0.000000 0.045313
0.144071 0.000000 0.047370
0.165581 0.000000 0.049428
0.187091 0.000000 0.051485
0.208601 0.000000 0.053543
0.230111 0.000000 0.055601
0.251620 0.000000 0.057658
0.273130 0.000000 0.059716
0.294640 0.000000 0.061773
0.316150 0.000000 0.063831
0.337660 0.000000 0.065889
0.359169 0.000000 0.067946
0.380679 0.000000 0.070004
0.402189 0.000000 0.072061
0.423699 0.000000 0.074119
0.445209 0.000000 0.076176
0.143280 0.000000 0.047295
0.164790 0.000000 0.049352
0.186300 0.000000 0.051410
0.207809 0.000000 0.053467
0.229319 0.000000 0.055525
0.250829 0.000000 0.057582
0.272339 0.000000 0.059640
0.293849 0.000000 0.061698
0.315358 0.000000 0.063755
0.336868 0.000000 0.065813
0.358378 0.000000 0.067870
0.379888 0.000000 0.069928
0.401398 0.000000 0.071986
0.422907 0.000000 0.074043
0.444417 0.000000 0.076101
0.469374 0.007702 0.083306
0.498367 0.024423 0.096539
0.185508 0.000000 0.051334
0.207018 0.000000 0.053392
0.228528 0.000000 0.055449
0.250038 0.000000 0.057507
0.271548 0.000000 0.059564
0.293057 0.000000 0.061622
0.314567 0.000000 0.063680
0.336077 0.000000 0.065737
0.357587 0.000000 0.067795
0.379097 0.000000 0.069852
0.400606 0.000000 0.071910
0.422116 0.000000 0.073967
0.443626 0.000000 0.076025
0.468308 0.007087 0.082819
0.497300 0.023808 0.096052
0.526293 0.040529 0.109285
0.555286 0.057250 0.122517
0.227737 0.000000 0.055374
0.249246 0.000000 0.057431
0.270756 0.000000 0.059489
0.292266 0.000000 0.061546
0.313776 0.000000 0.063604
0.335286 0.000000 0.065661
0.356795 0.000000 0.067719
0.378305 0.000000 0.069777
0.399815 0.000000 0.071834
0.421325 0.000000 0.073892
0.442835 0.000000 0.075949
0.467241 0.006472 0.082332
0.496234 0.023193 0.095565
0.525227 0.039914 0.108798
0.554219 0.056635 0.122031
0.583212 0.073355 0.135263
0.612205 0.090076 0.148496
0.269965 0.000000 0.059413
0.291475 0.000000 0.061471
0.312984 0.000000 0.063528
0.334494 0.000000 0.065586
0.356004 0.000000 0.067643
0.377514 0.000000 0.069701
0.399024 0.000000 0.071758
0.420533 0.000000 0.073816
0.442043 0.000000 0.075874
0.466174 0.005857 0.081846
0.495167 0.022578 0.095078
0.524160 0.039299 0.108311
0.553153 0.056019 0.121544
0.582146 0.072740 0.134776
0.611138 0.089461 0.148009
0.640131 0.106182 0.161242
0.669124 0.122902 0.174474
0.312193 0.000000 0.063452
0.333703 0.000000 0.065510
0.355213 0.000000 0.067568
0.376723 0.000000 0.069625
0.398232 0.000000 0.071683
0.419742 0.000000 0.073740
0.441252 0.000000 0.075798
0.465108 0.005242 0.081359
0.494101 0.021963 0.094592
0.523093 0.038683 0.107824
0.552086 0.055404 0.121057
0.581079 0.072125 0.134290
0.610072 0.088846 0.147522
0.639065 0.105567 0.160755
0.668058 0.122287 0.173988
0.697050 0.139008 0.187220
0.726043 0.155729 0.200453
0.354421 0.000000 0.067492
0.375931 0.000000 0.069549
0.397441 0.000000 0.071607
0.418951 0.000000 0.073665
0.440461 0.000000 0.075722
0.464041 0.004627 0.080872
0.493034 0.021348 0.094105
0.522027 0.038068 0.107337
0.551020 0.054789 0.120570
0.580012 0.071510 0.133803
0.609005 0.088231 0.147035
0.637998 0.104951 0.160268
0.666991 0.121672 0.173501
0.695984 0.138393 0.186733
0.724977 0.155114 0.199966
0.753969 0.171834 0.213199
0.782962 0.188555 0.226432
0.396650 0.000000 0.071531
0.418159 0.000000 0.073589
0.439669 0.000000 0.075647
0.462974 0.004012 0.080385
0.491967 0.020732 0.093618
0.520960 0.037453 0.106851
0.549953 0.054174 0.120083
0.578946 0.070895 0.133316
0.607939 0.087615 0.146549
0.636931 0.104336 0.159781
0.665924 0.121057 0.173014
0.694917 0.137778 0.186247
0.723910 0.154499 0.199479
0.752903 0.171219 0.212712
0.781896 0.187940 0.225945
0.810888 0.204661 0.239177
0.839881 0.221382 0.252410
0.438878 0.000000 0.075571
0.461908 0.003396 0.079898
0.490901 0.020117 0.093131
0.519893 0.036838 0.106364
0.548886 0.053559 0.119596
0.577879 0.070280 0.132829
0.606872 0.087000 0.146062
0.635865 0.103721 0.159294
0.664858 0.120442 0.172527
0.693850 0.137163 0.185760
0.722843 0.153883 0.198993
0.751836 0.170604 0.212225
0.780829 0.187325 0.225458
0.809822 0.204046 0.238691
0.838815 0.220767 0.251923
0.867807 0.237487 0.265156
0.896800 0.254208 0.278389
0.489834 0.019502 0.092644
0.518827 0.036223 0.105877
0.547820 0.052944 0.119110
0.576813 0.069664 0.132342
0.605805 0.086385 0.145575
0.634798 0.103106 0.158808
0.663791 0.119827 0.172040
0.692784 0.136547 0.185273
0.721777 0.153268 0.198506
0.750769 0.169989 0.211738
0.779762 0.186710 0.224971
0.808755 0.203431 0.238204
0.837748 0.220151 0.251436
0.866741 0.236872 0.264669
0.895734 0.253593 0.277902
0.924726 0.270314 0.291134
0.953719 0.287034 0.304367
0.546753 0.052329 0.118623
0.575746 0.069049 0.131855
0.604739 0.085770 0.145088
0.633732 0.102491 0.158321
0.662724 0.119212 0.171554
0.691717 0.135932 0.184786
0.720710 0.152653 0.198019
0.749703 0.169374 0.211252
0.778696 0.186095 0.224484
0.807689 0.202816 0.237717
0.836681 0.219536 0.250950
0.865674 0.236257 0.264182
0.894667 0.252978 0.277415
0.923660 0.269699 0.290648
0.952653 0.286419 0.303880
0.981646 0.303140 0.317113
0.999912 0.328041 0.340690
0.603672 0.085155 0.144601
0.632665 0.101876 0.157834
0.661658 0.118596 0.171067
0.690651 0.135317 0.184299
0.719643 0.152038 0.197532
0.748636 0.168759 0.210765
0.777629 0.185480 0.223997
0.806622 0.202200 0.237230
0.835615 0.218921 0.250463
0.864608 0.235642 0.263696
0.893601 0.252363 0.276928
0.922593 0.269083 0.290161
0.951586 0.285804 0.303394
0.980579 0.302525 0.316626
0.999920 0.326606 0.339166
0.999680 0.365621 0.380589
0.999439 0.404636 0.422013
0.660591 0.117981 0.170580
0.689584 0.134702 0.183813
0.718577 0.151423 0.197045
0.747570 0.168144 0.210278
0.776562 0.184864 0.223511
0.805555 0.201585 0.236743
0.834548 0.218306 0.249976
0.863541 0.235027 0.263209
0.892534 0.251747 0.276441
0.921527 0.268468 0.289674
0.950520 0.285189 0.302907
0.979512 0.301910 0.316139
0.999929 0.325171 0.337642
0.999689 0.364186 0.379065
0.999448 0.403201 0.420489
0.999207 0.442216 0.461912
0.998966 0.481231 0.503335
0.717510 0.150808 0.196558
0.746503 0.167528 0.209791
0.775496 0.184249 0.223024
0.804489 0.200970 0.236256
0.833482 0.217691 0.249489
0.862474 0.234412 0.262722
0.891467 0.251132 0.275955
0.920460 0.267853 0.289187
0.949453 0.284574 0.302420
0.978446 0.301295 0.315653
0.999938 0.323735 0.336118
0.999697 0.362750 0.377541
0.999457 0.401765 0.418965
0.999216 0.440781 0.460388
0.998975 0.479796 0.501811
0.998734 0.518811 0.543235
0.998493 0.557826 0.584658
0.774429 0.183634 0.222537
0.803422 0.200355 0.235770
0.832415 0.217076 0.249002
0.861408 0.233796 0.262235
0.890401 0.250517 0.275468
0.919393 0.267238 0.288700
0.948386 0.283959 0.301933
0.977379 0.300680 0.315166
0.999947 0.322300 0.334594
0.999706 0.361315 0.376017
0.999465 0.400330 0.417441
0.999225 0.439345 0.458864
0.998984 0.478360 0.500287
0.998743 0.517375 0.541711
0.998502 0.556390 0.583134
0.998261 0.595405 0.624558
0.998020 0.634420 0.665981
0.831348 0.216461 0.248516
0.860341 0.233181 0.261748
0.889334 0.249902 0.274981
0.918327 0.266623 0.288214
0.947320 0.283344 0.301446
0.976312 0.300064 0.314679
0.999956 0.320865 0.333070
0.999715 0.359880 0.374494
0.999474 0.398895 0.415917
0.999233 0.437910 0.457340
0.998993 0.476925 0.498764
0.998752 0.515940 0.540187
0.998511 0.554955 0.581610
0.998270 0.593970 0.623034
0.998029 0.632985 0.664457
0.997788 0.672000 0.705880
0.997548 0.711015 0.747304
0.067025 0.000000 0.040000
0.088534 0.000000 0.042058
0.110044 0.000000 0.044115
0.131554 0.000000 0.046173
0.153064 0.000000 0.048230
0.174574 0.000000 0.050288
0.196083 0.000000 0.052346
0.217593 0.000000 0.054403
0.239103 0.000000 0.056461
0.260613 0.000000 0.058518
0.282123 0.000000 0.060576
0.303632 0.000000 0.062634
0.325142 0.000000 0.064691
0.346652 0.000000 0.066749
0.368162 0.000000 0.068806
0.389672 0.000000 0.070864
0.411181 0.000000 0.072921
0.109253 0.000000 0.044040
0.130763 0.000000 0.046097
0.152272 0.000000 0.048155
0.173782 0.000000 0.050212
0.195292 0.000000 0.052270
0.216802 0.000000 0.054328
0.238312 0.000000 0.056385
0.259821 0.000000 0.058443
0.281331 0.000000 0.060500
0.302841 0.000000 0.062558
0.324351 0.000000 0.064615
0.345861 0.000000 0.066673
0.367370 0.000000 0.068731
0.388880 0.000000 0.070788
0.410390 0.000000 0.072846
0.431900 0.000000 0.074903
0.453410 0.000000 0.076961
0.151481 0.000000 0.048079
0.172991 0.000000 0.050137
0.194501 0.000000 0.052194
0.216011 0.000000 0.054252
0.237520 0.000000 0.056309
0.259030 0.000000 0.058367
0.280540 0.000000 0.060425
0.302050 0.000000 0.062482
0.323560 0.000000 0.064540
0.345069 0.000000 0.066597
0.366579 0.000000 0.068655
0.388089 0.000000 0.070712
0.409599 0.000000 0.072770
0.431109 0.000000 0.074828
0.452618 0.000000 0.076885
0.480428 0.014078 0.088351
0.509421 0.030798 0.101584
0.193709 0.000000 0.052119
0.215219 0.000000 0.054176
0.236729 0.000000 0.056234
0.258239 0.000000 0.058291
0.279749 0.000000 0.060349
0.301258 0.000000 0.062406
0.322768 0.000000 0.064464
0.344278 0.000000 0.066522
0.365788 0.000000 0.068579
0.387298 0.000000 0.070637
0.408807 0.000000 0.072694
0.430317 0.000000 0.074752
0.451827 0.000000 0.076809
0.479362 0.013462 0.087865
0.508354 0.030183 0.101097
0.537347 0.046904 0.114330
0.566340 0.063625 0.127563
0.235938 0.000000 0.056158
0.257447 0.000000 0.058216
0.278957 0.000000 0.060273
0.300467 0.000000 0.062331
0.321977 0.000000 0.064388
0.343487 0.000000 0.066446
0.364996 0.000000 0.068503
0.386506 0.000000 0.070561
0.408016 0.000000 0.072619
0.429526 0.000000 0.074676
0.451036 0.000000 0.076734
0.478295 0.012847 0.087378
0.507288 0.029568 0.100610
0.536281 0.046289 0.113843
0.565274 0.063010 0.127076
0.594266 0.079730 0.140308
0.623259 0.096451 0.153541
0.278166 0.000000 0.060197
0.299676 0.000000 0.062255
0.321186 0.000000 0.064313
0.342695 0.000000 0.066370
0.364205 0.000000 0.068428
0.385715 0.000000 0.070485
0.407225 0.000000 0.072543
0.428735 0.000000 0.074601
0.450244 0.000000 0.076658
0.477228 0.012232 0.086891
0.506221 0.028953 0.100124
0.535214 0.045674 0.113356
0.564207 0.062394 0.126589
0.593200 0.079115 0.139822
0.622193 0.095836 0.153054
0.651185 0.112557 0.166287
0.680178 0.129278 0.179520
0.320394 0.000000 0.064237
0.341904 0.000000 0.066295
0.363414 0.000000 0.068352
0.384924 0.000000 0.070410
0.406433 0.000000 0.072467
0.427943 0.000000 0.074525
0.449453 0.000000 0.076582
0.476162 0.011617 0.086404
0.505155 0.028338 0.099637
0.534148 0.045059 0.112869
0.563140 0.061779 0.126102
0.592133 0.078500 0.139335
0.621126 0.095221 0.152567
0.650119 0.111942 0.165800
0.679112 0.128662 0.179033
0.708104 0.145383 0.192266
0.737097 0.162104 0.205498
0.362622 0.000000 0.068276
0.384132 0.000000 0.070334
0.405642 0.000000 0.072392
0.427152 0.000000 0.074449
0.448662 0.000000 0.076507
0.475095 0.011002 0.085917
0.504088 0.027723 0.099150
0.533081 0.044443 0.112383
0.562074 0.061164 0.125615
0.591067 0.077885 0.138848
0.620059 0.094606 0.152081
0.649052 0.111327 0.165313
0.678045 0.128047 0.178546
0.707038 0.144768 0.191779
0.736031 0.161489 0.205011
0.765024 0.178210 0.218244
0.794016 0.194930 0.231477
0.404851 0.000000 0.072316
0.426361 0.000000 0.074373
0.447870 0.000000 0.076431
0.474029 0.010387 0.085430
0.503021 0.027108 0.098663
0.532014 0.043828 0.111896
0.561007 0.060549 0.125128
0.590000 0.077270 0.138361
0.618993 0.093991 0.151594
0.647986 0.110711 0.164827
0.676978 0.127432 0.178059
0.705971 0.144153 0.191292
0.734964 0.160874 0.204525
0.763957 0.177595 0.217757
0.792950 0.194315 0.230990
0.821943 0.211036 0.244223
0.850935 0.227757 0.257455
0.447079 0.000000 0.076355
0.472962 0.009772 0.084944
0.501955 0.026492 0.098176
0.530948 0.043213 0.111409
0.559940 0.059934 0.124642
0.588933 0.076655 0.137874
0.617926 0.093375 0.151107
0.646919 0.110096 0.164340
0.675912 0.126817 0.177572
0.704905 0.143538 0.190805
0.733897 0.160259 0.204038
0.762890 0.176979 0.217270
0.791883 0.193700 0.230503
0.820876 0.210421 0.243736
0.849869 0.227142 0.256968
0.878862 0.243862 0.270201
0.907854 0.260583 0.283434
0.500888 0.025877 0.097689
0.529881 0.042598 0.110922
0.558874 0.059319 0.124155
0.587867 0.076040 0.137387
0.616859 0.092760 0.150620
0.645852 0.109481 0.163853
0.674845 0.126202 0.177086
0.703838 0.142923 0.190318
0.732831 0.159643 0.203551
0.761824 0.176364 0.216784
0.790816 0.193085 0.230016
0.819809 0.209806 0.243249
0.848802 0.226527 0.256482
0.877795 0.243247 0.269714
0.906788 0.259968 0.282947
0.935781 0.276689 0.296180
0.964773 0.293410 0.309412
0.557807 0.058704 0.123668
0.586800 0.075424 0.136901
0.615793 0.092145 0.150133
0.644786 0.108866 0.163366
0.673779 0.125587 0.176599
0.702771 0.142308 0.189831
0.731764 0.159028 0.203064
0.760757 0.175749 0.216297
0.789750 0.192470 0.229530
0.818743 0.209191 0.242762
0.847736 0.225911 0.255995
0.876728 0.242632 0.269228
0.905721 0.259353 0.282460
0.934714 0.276074 0.295693
0.963707 0.292794 0.308926
0.992700 0.309515 0.322158
0.999820 0.342917 0.356483
0.614726 0.091530 0.149647
0.643719 0.108251 0.162879
0.672712 0.124972 0.176112
0.701705 0.141692 0.189345
0.730698 0.158413 0.202577
0.759690 0.175134 0.215810
0.788683 0.191855 0.229043
0.817676 0.208575 0.242275
0.846669 0.225296 0.255508
0.875662 0.242017 0.268741
0.904655 0.258738 0.281973
0.933647 0.275459 0.295206
0.962640 0.292179 0.308439
0.991633 0.308900 0.321671
0.999829 0.341481 0.354959
0.999588 0.380496 0.396383
0.999347 0.419511 0.437806
0.671645 0.124356 0.175625
0.700638 0.141077 0.188858
0.729631 0.157798 0.202090
0.758624 0.174519 0.215323
0.787617 0.191240 0.228556
0.816610 0.207960 0.241789
0.845602 0.224681 0.255021
0.874595 0.241402 0.268254
0.903588 0.258123 0.281487
0.932581 0.274843 0.294719
0.961574 0.291564 0.307952
0.990566 0.308285 0.321185
0.999838 0.340046 0.353435
0.999597 0.379061 0.394859
0.999356 0.418076 0.436282
0.999115 0.457091 0.477706
0.998874 0.496106 0.519129
0.728564 0.157183 0.201604
0.757557 0.173904 0.214836
0.786550 0.190624 0.228069
0.815543 0.207345 0.241302
0.844536 0.224066 0.254534
0.873529 0.240787 0.267767
0.902521 0.257508 0.281000
0.931514 0.274228 0.294232
0.960507 0.290949 0.307465
0.989500 0.307670 0.320698
0.999846 0.338611 0.351912
0.999606 0.377626 0.393335
0.999365 0.416641 0.434758
0.999124 0.455656 0.476182
0.998883 0.494671 0.517605
0.998642 0.533686 0.559029
0.998401 0.572701 0.600452
0.785483 0.190009 0.227582
0.814476 0.206730 0.240815
0.843469 0.223451 0.254048
0.872462 0.240172 0.267280
0.901455 0.256892 0.280513
0.930448 0.273613 0.293746
0.959440 0.290334 0.306978
0.988433 0.307055 0.320211
0.999855 0.337175 0.350388
0.999614 0.376190 0.391811
0.999374 0.415205 0.433234
0.999133 0.454220 0.474658
0.998892 0.493235 0.516081
0.998651 0.532251 0.557504
0.998410 0.571266 0.598928
0.998169 0.610281 0.640351
0.997929 0.649296 0.681775
0.842402 0.222836 0.253561
0.871395 0.239556 0.266793
0.900388 0.256277 0.280026
0.929381 0.272998 0.293259
0.958374 0.289719 0.306491
0.987367 0.306440 0.319724
0.999864 0.335740 0.348864
0.999623 0.374755 0.390287
0.999382 0.413770 0.431710
0.999142 0.452785 0.473134
0.998901 0.491800 0.514557
0.998660 0.530815 0.555980
0.998419 0.569830 0.597404
0.998178 0.608845 0.638827
0.997937 0.647860 0.680251
0.997697 0.686875 0.721674
0.997456 0.725890 0.763097
0.075226 0.000000 0.040785
0.096735 0.000000 0.042842
0.118245 0.000000 0.044900
0.139755 0.000000 0.046957
0.161265 0.000000 0.049015
0.182775 0.000000 0.051073
0.204284 0.000000 0.053130
0.225794 0.000000 0.055188
0.247304 0.000000 0.057245
0.268814 0.000000 0.059303
0.290324 0.000000 0.061360
0.311833 0.000000 0.063418
0.333343 0.000000 0.065476
0.354853 0.000000 0.067533
0.376363 0.000000 0.069591
0.397873 0.000000 0.071648
0.419382 0.000000 0.073706
0.117454 0.000000 0.044824
0.138964 0.000000 0.046882
0.160474 0.000000 0.048939
0.181983 0.000000 0.050997
0.203493 0.000000 0.053054
0.225003 0.000000 0.055112
0.246513 0.000000 0.057170
0.268023 0.000000 0.059227
0.289532 0.000000 0.061285
0.311042 0.000000 0.063342
0.332552 0.000000 0.065400
0.354062 0.000000 0.067457
0.375572 0.000000 0.069515
0.397081 0.000000 0.071573
0.418591 0.000000 0.073630
0.440101 0.000000 0.075688
0.463556 0.004347 0.080651
0.159682 0.000000 0.048864
0.181192 0.000000 0.050921
0.202702 0.000000 0.052979
0.224212 0.000000 0.055036
0.245721 0.000000 0.057094
0.267231 0.000000 0.059151
0.288741 0.000000 0.061209
0.310251 0.000000 0.063267
0.331761 0.000000 0.065324
0.353270 0.000000 0.067382
0.374780 0.000000 0.069439
0.396290 0.000000 0.071497
0.417800 0.000000 0.073555
0.439310 0.000000 0.075612
0.462490 0.003732 0.080164
0.491482 0.020453 0.093397
0.520475 0.037174 0.106629
0.201910 0.000000 0.052903
0.223420 0.000000 0.054961
0.244930 0.000000 0.057018
0.266440 0.000000 0.059076
0.287950 0.000000 0.061133
0.309459 0.000000 0.063191
0.330969 0.000000 0.065249
0.352479 0.000000 0.067306
0.373989 0.000000 0.069364
0.395499 0.000000 0.071421
0.417008 0.000000 0.073479
0.438518 0.000000 0.075536
0.461423 0.003117 0.079677
0.490416 0.019838 0.092910
0.519409 0.036558 0.106142
0.548402 0.053279 0.119375
0.577394 0.070000 0.132608
0.244139 0.000000 0.056943
0.265649 0.000000 0.059000
0.287158 0.000000 0.061058
0.308668 0.000000 0.063115
0.330178 0.000000 0.065173
0.351688 0.000000 0.067230
0.373198 0.000000 0.069288
0.394707 0.000000 0.071346
0.416217 0.000000 0.073403
0.437727 0.000000 0.075461
0.460356 0.002502 0.079190
0.489349 0.019222 0.092423
0.518342 0.035943 0.105656
0.547335 0.052664 0.118888
0.576328 0.069385 0.132121
0.605321 0.086106 0.145354
0.634313 0.102826 0.158586
0.286367 0.000000 0.060982
0.307877 0.000000 0.063040
0.329387 0.000000 0.065097
0.350896 0.000000 0.067155
0.372406 0.000000 0.069212
0.393916 0.000000 0.071270
0.415426 0.000000 0.073327
0.436936 0.000000 0.075385
0.459290 0.001887 0.078703
0.488283 0.018607 0.091936
0.517275 0.035328 0.105169
0.546268 0.052049 0.118401
0.575261 0.068770 0.131634
0.604254 0.085490 0.144867
0.633247 0.102211 0.158100
0.662240 0.118932 0.171332
0.691232 0.135653 0.184565
0.328595 0.000000 0.065021
0.350105 0.000000 0.067079
0.371615 0.000000 0.069137
0.393125 0.000000 0.071194
0.414634 0.000000 0.073252
0.436144 0.000000 0.075309
0.458223 0.001271 0.078217
0.487216 0.017992 0.091449
0.516209 0.034713 0.104682
0.545202 0.051434 0.117915
0.574194 0.068155 0.131147
0.603187 0.084875 0.144380
0.632180 0.101596 0.157613
0.661173 0.118317 0.170845
0.690166 0.135038 0.184078
0.719159 0.151758 0.197311
0.748151 0.168479 0.210543
0.370824 0.000000 0.069061
0.392333 0.000000 0.071118
0.413843 0.000000 0.073176
0.435353 0.000000 0.075234
0.457157 0.000656 0.077730
0.486149 0.017377 0.090962
0.515142 0.034098 0.104195
0.544135 0.050819 0.117428
0.573128 0.067539 0.130661
0.602121 0.084260 0.143893
0.631113 0.100981 0.157126
0.660106 0.117702 0.170359
0.689099 0.134422 0.183591
0.718092 0.151143 0.196824
0.747085 0.167864 0.210057
0.776078 0.184585 0.223289
0.805070 0.201306 0.236522
0.413052 0.000000 0.073100
0.434562 0.000000 0.075158
0.456090 0.000041 0.077243
0.485083 0.016762 0.090476
0.514076 0.033483 0.103708
0.543068 0.050203 0.116941
0.572061 0.066924 0.130174
0.601054 0.083645 0.143406
0.630047 0.100366 0.156639
0.659040 0.117087 0.169872
0.688033 0.133807 0.183104
0.717025 0.150528 0.196337
0.746018 0.167249 0.209570
0.775011 0.183970 0.222802
0.804004 0.200690 0.236035
0.832997 0.217411 0.249268
0.861989 0.234132 0.262501
0.455280 0.000000 0.077140
0.484016 0.016147 0.089989
0.513009 0.032868 0.103222
0.542002 0.049588 0.116454
0.570995 0.066309 0.129687
0.599987 0.083030 0.142920
0.628980 0.099751 0.156152
0.657973 0.116471 0.169385
0.686966 0.133192 0.182618
0.715959 0.149913 0.195850
0.744951 0.166634 0.209083
0.773944 0.183354 0.222316
0.802937 0.200075 0.235548
0.831930 0.216796 0.248781
0.860923 0.233517 0.262014
0.889916 0.250238 0.275246
0.918908 0.266958 0.288479
0.511942 0.032252 0.102735
0.540935 0.048973 0.115967
0.569928 0.065694 0.129200
0.598921 0.082415 0.142433
0.627914 0.099135 0.155665
0.656906 0.115856 0.168898
0.685899 0.132577 0.182131
0.714892 0.149298 0.195363
0.743885 0.166019 0.208596
0.772878 0.182739 0.221829
0.801871 0.199460 0.235062
0.830863 0.216181 0.248294
0.859856 0.232902 0.261527
0.888849 0.249622 0.274760
0.917842 0.266343 0.287992
0.946835 0.283064 0.301225
0.975828 0.299785 0.314458
0.568861 0.065079 0.128713
0.597854 0.081800 0.141946
0.626847 0.098520 0.155179
0.655840 0.115241 0.168411
0.684833 0.131962 0.181644
0.713826 0.148683 0.194877
0.742818 0.165403 0.208109
0.771811 0.182124 0.221342
0.800804 0.198845 0.234575
0.829797 0.215566 0.247807
0.858790 0.232287 0.261040
0.887783 0.249007 0.274273
0.916775 0.265728 0.287505
0.945768 0.282449 0.300738
0.974761 0.299170 0.313971
0.999969 0.318777 0.330853
0.999728 0.357792 0.372277
0.625780 0.097905 0.154692
0.654773 0.114626 0.167924
0.683766 0.131347 0.181157
0.712759 0.148067 0.194390
0.741752 0.164788 0.207623
0.770745 0.181509 0.220855
0.799737 0.198230 0.234088
0.828730 0.214951 0.247321
0.857723 0.231671 0.260553
0.886716 0.248392 0.273786
0.915709 0.265113 0.287019
0.944702 0.281834 0.300251
0.973694 0.298554 0.313484
0.999978 0.317342 0.329329
0.999737 0.356357 0.370753
0.999496 0.395372 0.412176
0.999255 0.434387 0.453600
0.682699 0.130732 0.180670
0.711692 0.147452 0.193903
0.740685 0.164173 0.207136
0.769678 0.180894 0.220368
0.798671 0.197615 0.233601
0.827664 0.214335 0.246834
0.856656 0.231056 0.260066
0.885649 0.247777 0.273299
0.914642 0.264498 0.286532
0.943635 0.281219 0.299765
0.972628 0.297939 0.312997
0.999987 0.315906 0.327806
0.999746 0.354921 0.369229
0.999505 0.393936 0.410652
0.999264 0.432951 0.452076
0.999023 0.471966 0.493499
0.998782 0.510981 0.534922
0.739618 0.163558 0.206649
0.768611 0.180279 0.219882
0.797604 0.197000 0.233114
0.826597 0.213720 0.246347
0.855590 0.230441 0.259580
0.884583 0.247162 0.272812
0.913575 0.263883 0.286045
0.942568 0.280603 0.299278
0.971561 0.297324 0.312510
0.999995 0.314471 0.326282
0.999755 0.353486 0.367705
0.999514 0.392501 0.409128
0.999273 0.431516 0.450552
0.999032 0.470531 0.491975
0.998791 0.509546 0.533398
0.998550 0.548561 0.574822
0.998310 0.587576 0.616245
0.796537 0.196384 0.232627
0.825530 0.213105 0.245860
0.854523 0.229826 0.259093
0.883516 0.246547 0.272326
0.912509 0.263267 0.285558
0.941502 0.279988 0.298791
0.970494 0.296709 0.312024
0.999487 0.313430 0.325256
0.999763 0.352051 0.366181
0.999523 0.391066 0.407604
0.999282 0.430081 0.449028
0.999041 0.469096 0.490451
0.998800 0.508111 0.531874
0.998559 0.547126 0.573298
0.998318 0.586141 0.614721
0.998078 0.625156 0.656145
0.997837 0.664171 0.697568
0.853456 0.229211 0.258606
0.882449 0.245932 0.271839
0.911442 0.262652 0.285071
0.940435 0.279373 0.298304
0.969428 0.296094 0.311537
0.998421 0.312815 0.324769
0.999772 0.350615 0.364657
0.999531 0.389630 0.406081
0.999291 0.428645 0.447504
0.999050 0.467660 0.488927
0.998809 0.506675 0.530351
0.998568 0.545690 0.571774
0.998327 0.584705 0.613197
0.998086 0.623720 0.654621
0.997846 0.662735 0.696044
0.997605 0.701751 0.737467
0.997364 0.740766 0.778891
0.083427 0.000000 0.041569
0.104937 0.000000 0.043627
0.126446 0.000000 0.045684
0.147956 0.000000 0.047742
0.169466 0.000000 0.049799
0.190976 0.000000 0.051857
0.212486 0.000000 0.053915
0.233995 0.000000 0.055972
0.255505 0.000000 0.058030
0.277015 0.000000 0.060087
0.298525 0.000000 0.062145
0.320035 0.000000 0.064203
0.341544 0.000000 0.066260
0.363054 0.000000 0.068318
0.384564 0.000000 0.070375
